!!!!SEGMENT: pl-cz--iii-458--001_kuci-mateusz--symfonia-b-allegro.krn
!!!cenid: 17xx:942
!!!COM: Kuci, Mateusz
!!!COM-rismid: pe30017582
!!!CDT:
!!!CNT:
!!!OPR: Symfonia B
!!!OTL: Allegro
!!!OMV: 001
!!!PDT:
!!!AGN: Secular
!!!SMS-siglum: PL-CZ
!!!SMS-shelfmark: III-458
!!!SMS-shelfwork: 001-001 M
!!!SMS-variant:
!!!SMS-altvar:
!!!NIFC-rismid: 300000668
!!!URL-scan: http://repozytorium.nifc.pl/skany/pl-cz-nut--iii-458
!!!ONB-nifc: UWAGA: części Symfonii: Allegro, Adagio, Allegro
!!!key: B-
**kern	**dynam	**kern	**dynam	**kern	**dynam	**kern	**dynam	**kern	**dynam	**kern	**dynam	**kern	**dynam	**kern	**dynam
*part8	*part8	*part7	*part7	*part6	*part6	*part5	*part5	*part4	*part4	*part3	*part3	*part2	*part2	*part1	*part1
*staff8	*	*staff7	*	*staff6	*	*staff5	*	*staff4	*	*staff3	*	*staff2	*	*staff1	*
*Iempty	*	*Iviola	*	*Ivioln	*	*Ivioln	*	*Iempty	*	*Iempty	*	*Ioboe	*	*Ioboe	*
*I"Baſso.	*	*I"Viola	*	*I"Violino Secondo.	*	*I"Violino. Primo.	*	*I"Cornu IIdo in B	*	*I"Cornu Primo. Toni B.	*	*I"Oboe Secondo	*	*I"Oboe Primo.	*
*I'b	*	*I'vla	*	*I'vl 2	*	*I'vl 1	*	*I'cor 2 in B♭	*	*I'cor 1 in B♭	*	*I'ob 2	*	*I'ob 1	*
*ICstr	*	*ICstr	*	*ICstr	*	*ICstr	*	*ICbras	*	*ICbras	*	*ICww	*	*ICww	*
*IG	*	*	*	*	*	*	*	*	*	*	*	*	*	*	*
*clefF4	*	*clefC3	*	*clefG2	*	*clefG2	*	*clefG2	*	*clefG2	*	*clefG2	*	*clefG2	*
*	*	*	*	*	*	*	*	*ITrd1c2	*	*ITrd1c2	*	*	*	*	*
*k[b-e-]	*	*k[b-e-]	*	*k[b-e-]	*	*k[b-e-]	*	*k[b-e-]	*	*k[b-e-]	*	*k[b-e-]	*	*k[b-e-]	*
*B-:	*	*B-:	*	*B-:	*	*B-:	*	*B-:	*	*B-:	*	*B-:	*	*B-:	*
*M2/2	*	*M2/2	*	*M2/2	*	*M2/2	*	*M2/2	*	*M2/2	*	*M2/2	*	*M2/2	*
*met(c|)	*	*met(c|)	*	*met(c|)	*	*met(c|)	*	*met(c|)	*	*met(c|)	*	*met(c|)	*	*met(c|)	*
=1	=1	=1	=1	=1	=1	=1	=1	=1	=1	=1	=1	=1	=1	=1	=1
!LO:TX:t=P:problem:mixed beam	!	!	!	!	!	!	!	!	!	!	!	!	!	!LO:TX:a:t=Sinphonia	!
!LO:TX:t=P:problem:2\, 4\, 8\:global	!	!LO:TX:t=P:problem:mixed beam	!	!LO:TX:t=P:problem:2\, 4\, 8\, 16\:global	!	!LO:TX:t=P:problem:2\, 4\, 8\, 16\:global	!	!LO:TX:a:t=Allegro Moderato	!	!LO:TX:a:t=Allegro	!	!	!	!LO:TX:a:t=Allegro Moder	!
*all\right	*	*all\right	*	*all\right	*	*all\right	*	*all\right	*	*all\right	*	*all\right	*	*all\right	*
*2\right	*	*2\right	*	*2\right	*	*2\right	*	*2\right	*	*2\right	*	*2\right	*	*2\right	*
!	!LO:DY:b:t=for	!	!	!	!	!	!	!	!	!	!	!	!	!	!
!LO:TX:a:t=Allegro Moder:	!	!LO:TX:t=P:problem:2\, 4\, 8\:global	!	!LO:TX:a:t=Allegro Moder:	!	!LO:TX:a:t=Allegro Modera:	!	!LO:TX:t=P:problem:2\, 4\, 8\, 16\:global	!	!LO:TX:t=P:problem:2\, 4\, 8\, 16\:global	!	!LO:TX:t=P:problem:2\, 4\, 8\, 16\:global	!	!LO:TX:t=P:problem:2\, 4\, 8\, 16\:global	!
8BB-/L	f	8B-\L	.	2B-/ 2f	ff	2d/ 2b-	.	[1B-	.	[1b-	.	2d/	.	2b-\	.
8B-\	.	8b-\	.	.	.	.	.	.	.	.	.	.	.	.	.
8B-\	.	8b-\	.	.	.	.	.	.	.	.	.	.	.	.	.
8B-\J	.	8b-\J	.	.	.	.	.	.	.	.	.	.	.	.	.
*	*	*tremolo	*	*	*	*	*	*	*	*	*	*	*	*	*
8B-\L	.	8b-\L	.	2d/ 2b-	.	2f/ 2dd	.	.	.	.	.	2b-\	.	2dd\	.
8B-\	.	8b-\	.	.	.	.	.	.	.	.	.	.	.	.	.
8B-\	.	8b-\	.	.	.	.	.	.	.	.	.	.	.	.	.
8B-\J	.	8b-\J	.	.	.	.	.	.	.	.	.	.	.	.	.
=2	=2	=2	=2	=2	=2	=2	=2	=2	=2	=2	=2	=2	=2	=2	=2
*	*	*	*	*	*	*^	*	*	*	*	*	*	*	*	*
*tremolo	*	*	*	*	*	*	*	*	*	*	*	*	*	*	*	*
8B-\L	.	8b-\L	.	2f/ 2dd	.	2ff/	2b-\	.	1B-]	.	1b-]	.	2dd\	.	2ff\	.
8B-\	.	8b-\	.	.	.	.	.	.	.	.	.	.	.	.	.	.
8B-\	.	8b-\	.	.	.	.	.	.	.	.	.	.	.	.	.	.
8B-\J	.	8b-\J	.	.	.	.	.	.	.	.	.	.	.	.	.	.
8B-\L	.	8b-\L	.	16bb-\LL	.	16bb-\LL	2ryy	.	.	.	.	.	2r	.	2r	.
.	.	.	.	16aa\	.	16aa\	.	.	.	.	.	.	.	.	.	.
8B-\	.	8b-\	.	16gg\	.	16gg\	.	.	.	.	.	.	.	.	.	.
.	.	.	.	16ff\JJ	.	16ff\JJ	.	.	.	.	.	.	.	.	.	.
8B-\	.	8b-\	.	16ee-\LL	.	16ee-\LL	.	.	.	.	.	.	.	.	.	.
.	.	.	.	16dd\	.	16dd\	.	.	.	.	.	.	.	.	.	.
8B-\J	.	8b-\J	.	16cc\	.	16cc\	.	.	.	.	.	.	.	.	.	.
.	.	.	.	16b-\JJ	.	16b-\JJ	.	.	.	.	.	.	.	.	.	.
*	*	*	*	*	*	*v	*v	*	*	*	*	*	*	*	*	*
=3	=3	=3	=3	=3	=3	=3	=3	=3	=3	=3	=3	=3	=3	=3	=3
8F\L	.	8f\L	.	(4a\ 4cc	.	4cc\	.	4f/	.	4cc\	.	4a/	.	4cc\	.
8F\	.	8f\	.	.	.	.	.	.	.	.	.	.	.	.	.
8F\	.	8f\	.	4b-\)	.	4dd\	.	4b-\	.	4dd\	.	4b-/	.	4dd\	.
8F\J	.	8f\J	.	.	.	.	.	.	.	.	.	.	.	.	.
.	.	.	.	8qqdd/	.	8qqff/	.	8qqdd/	.	8qqff/	.	8qqdd/	.	8qqff/	.
8F\L	.	8f\L	.	2cc\	.	(2ee-\	.	2cc\	.	2ee-\	.	2cc\	.	2ee-\	.
8F\	.	8f\	.	.	.	.	.	.	.	.	.	.	.	.	.
8F\	.	8f\	.	.	.	.	.	.	.	.	.	.	.	.	.
8F\J	.	8f\J	.	.	.	.	.	.	.	.	.	.	.	.	.
=4	=4	=4	=4	=4	=4	=4	=4	=4	=4	=4	=4	=4	=4	=4	=4
!LO:TX:t=P:problem:mixed beam	!	!	!	!	!	!	!	!	!	!	!	!	!	!	!
.	.	.	.	8qqcc/	.	8qqee-/	.	.	.	8qqee-/	.	8qqcc/	.	8qqee-/	.
8BB-/L	.	8f\L	.	4b-\	.	4dd\)	.	4b-\	.	4dd\	.	4b-\	.	4dd\	.
8B-\	.	8dd\	.	.	.	.	.	.	.	.	.	.	.	.	.
8A\	.	8cc\	.	4r	.	4r	.	4r	.	4r	.	4r	.	4r	.
8G\J	.	8b-\J	.	.	.	.	.	.	.	.	.	.	.	.	.
8F\L	.	8a\L	.	2r	.	2r	.	2r	.	2r	.	2r	.	2r	.
8E-\	.	8g\	.	.	.	.	.	.	.	.	.	.	.	.	.
8D\	.	8f\	.	.	.	.	.	.	.	.	.	.	.	.	.
8C\J	.	8e-\J	.	.	.	.	.	.	.	.	.	.	.	.	.
=5	=5	=5	=5	=5	=5	=5	=5	=5	=5	=5	=5	=5	=5	=5	=5
!LO:TX:t=P:problem:mixed beam	!	!	!	!	!	!	!	!	!	!	!	!	!	!	!
8BB-/L	p	8d\L	p	2B-/ 2f	p	2d/ 2b-	pp	[1B-	p	[1b-	p	2d/	p	2b-\	p
8B-\	.	8B-\	.	.	.	.	.	.	.	.	.	.	.	.	.
8B-\	.	8B-\	.	.	.	.	.	.	.	.	.	.	.	.	.
8B-\J	.	8B-\J	.	.	.	.	.	.	.	.	.	.	.	.	.
8B-\L	.	8B-/L	.	2d/ 2b-	.	2f/ 2dd	.	.	.	.	.	2b-\	.	2dd\	.
8B-\	.	8B-/	.	.	.	.	.	.	.	.	.	.	.	.	.
8B-\	.	8B-/	.	.	.	.	.	.	.	.	.	.	.	.	.
8B-\J	.	8B-/J	.	.	.	.	.	.	.	.	.	.	.	.	.
=6	=6	=6	=6	=6	=6	=6	=6	=6	=6	=6	=6	=6	=6	=6	=6
*	*	*	*	*	*	*^	*	*	*	*	*	*	*	*	*
8B-\L	.	8B-/L	.	2f/ 2dd	.	2ff/	2b-\	.	1B-]	.	(1b-]	.	2dd\	.	2ff\	.
8B-\	.	8B-/	.	.	.	.	.	.	.	.	.	.	.	.	.	.
8B-\	.	8B-/	.	.	.	.	.	.	.	.	.	.	.	.	.	.
8B-\J	.	8B-/J	.	.	.	.	.	.	.	.	.	.	.	.	.	.
8B-\L	.	8B-/L	.	16bb-\LL	.	(16bb-\LL	2ryy	.	.	.	.	.	2r	.	2r	.
.	.	.	.	16aa\	.	16aa\)	.	.	.	.	.	.	.	.	.	.
8B-\	.	8B-/	.	16gg\	.	16gg'\	.	.	.	.	.	.	.	.	.	.
.	.	.	.	16ff\JJ	.	16ff'\JJ	.	.	.	.	.	.	.	.	.	.
8B-\	.	8B-/	.	16ee-\LL	.	16ee-'\LL	.	.	.	.	.	.	.	.	.	.
.	.	.	.	16dd\	.	16dd'\	.	.	.	.	.	.	.	.	.	.
8B-\J	.	8B-/J	.	16cc\	.	16cc'\	.	.	.	.	.	.	.	.	.	.
.	.	.	.	16b-\JJ	.	16b-'\JJ	.	.	.	.	.	.	.	.	.	.
!	!	!	!	!LO:LB:g=original	!	!	!	!	!	!	!	!	!	!	!	!
*	*	*	*	*	*	*v	*v	*	*	*	*	*	*	*	*	*
=7	=7	=7	=7	=7	=7	=7	=7	=7	=7	=7	=7	=7	=7	=7	=7
!	!	!	!	!LO:TX:t=P:problem:klamra łukowa, numer:global	!	!LO:TX:t=P:problem:klamra łukowa, numer:global	!	!	!	!	!	!	!	!	!
8F\L	.	8f\L	.	12a/L	.	12cc\L	.	4f/	.	4cc\)	.	4f/	.	4dd\	.
.	.	.	.	12b-/	.	12dd\	.	.	.	.	.	.	.	.	.
8F\	.	8f\	.	.	.	.	.	.	.	.	.	.	.	.	.
.	.	.	.	12cc/J	.	12ee-\J	.	.	.	.	.	.	.	.	.
8F\	.	8f\	.	12b-\L	.	12dd\L	.	4b-\	.	4dd\	.	4b-\	.	4dd\	.
.	.	.	.	12cc\	.	12ee-\	.	.	.	.	.	.	.	.	.
8F\J	.	8f\J	.	.	.	.	.	.	.	.	.	.	.	.	.
.	.	.	.	12dd\J	.	12ff\J	.	.	.	.	.	.	.	.	.
!	!	!	!	!	!	!LO:LB:g=original	!	!	!	!	!	!	!	!	!
8F\L	.	8f\L	.	4.dd\	.	4.ff\	.	4.dd\	.	4.ff\	.	4.dd\	.	4.ff\	.
8F\	.	8f\	.	.	.	.	.	.	.	.	.	.	.	.	.
8F\	.	8f\	.	.	.	.	.	.	.	.	.	.	.	.	.
8F\J	.	8f\J	.	8cc\	.	8ee-\	.	8cc\	.	8ee-\	.	8cc\	.	8ee-\	.
!LO:LB:g=original	!	!LO:LB:g=original	!	!	!	!	!	!	!	!	!	!	!	!	!
=8	=8	=8	=8	=8	=8	=8	=8	=8	=8	=8	=8	=8	=8	=8	=8
*	*	*	*	*tremolo	*	*	*	*	*	*	*	*	*	*	*
!LO:TX:t=P:problem:mixed beam	!	!	!	!	!	!	!	!	!	!	!	!	!	!	!
.	.	.	.	.	.	8qqee-/	.	8qqcc/	.	8qqee-/	f	8qqcc/	.	8qqee-/	.
!	!LO:DY:b:t=fortiſ	!	!LO:DY:b:t=for	!	!	!	!	!	!	!	!	!	!	!	!
8BB-/L	ff	16f\LL	f	16b-\LL	.	(8dd\L	.	4b-\	.	4dd\	.	4b-\	.	4dd\	.
.	.	16f\	.	16b-\	.	.	.	.	.	.	.	.	.	.	.
8B-\	.	16f\	.	16b-\	.	16cc\L	.	.	.	.	.	.	.	.	.
.	.	16f\	.	16b-\	.	16b-\JJ)	.	.	.	.	.	.	.	.	.
8F\	.	16f\	.	16b-\	.	4b-\	.	4b-\	.	4dd\	.	4b-\	.	4dd\	.
.	.	16f\	.	16b-\	.	.	.	.	.	.	.	.	.	.	.
8D\J	.	16f\	.	16b-\	.	.	.	.	.	.	.	.	.	.	.
.	.	16f\JJ	.	16b-\JJ	.	.	.	.	.	.	.	.	.	.	.
!	!	!	!	!	!	!	!LO:DY:b:t=for	!	!LO:DY:b:t=for	!	!	!	!	!	!LO:DY:b:t=for
8BB-/L	.	16f\LL	.	16f/ 16ddLL	.	8r	f	2B-/	f	2b-\	.	2dd\	.	2ff\	f
!	!	!	!	!	!	!	!	!LO:LB:g=original	!	!LO:LB:g=original	!	!LO:LB:g=original	!	!LO:LB:g=original	!
.	.	16f\	.	16f/ 16dd	.	.	.	.	.	.	.	.	.	.	.
8D/	.	16f\	.	16f/ 16dd	.	8ff\L	.	.	.	.	.	.	.	.	.
.	.	16f\	.	16f/ 16dd	.	.	.	.	.	.	.	.	.	.	.
8F/	.	16f\	.	16f/ 16dd	.	8dd\	.	.	.	.	.	.	.	.	.
.	.	16f\	.	16f/ 16dd	.	.	.	.	.	.	.	.	.	.	.
8D/J	.	16f\	.	16f/ 16dd	.	8b-\J	.	.	.	.	.	.	.	.	.
.	.	16f\JJ	.	16f/ 16ddJJ	.	.	.	.	.	.	.	.	.	.	.
=9	=9	=9	=9	=9	=9	=9	=9	=9	=9	=9	=9	=9	=9	=9	=9
8BB-\L	.	16B-/ 16gLL	.	16g/ 16ee-LL	.	4e-/ 4b- 4gg	.	[1B-	.	[1b-	.	1ee-	.	1gg	.
.	.	16B-/ 16g	.	16g/ 16ee-	.	.	.	.	.	.	.	.	.	.	.
8E-\	.	16B-/ 16g	.	16g/ 16ee-	.	.	.	.	.	.	.	.	.	.	.
.	.	16B-/ 16g	.	16g/ 16ee-	.	.	.	.	.	.	.	.	.	.	.
8G\	.	16B-/ 16g	.	16g/ 16ee-	.	2e-/	.	.	.	.	.	.	.	.	.
.	.	16B-/ 16g	.	16g/ 16ee-	.	.	.	.	.	.	.	.	.	.	.
8E-\J	.	16B-/ 16g	.	16g/ 16ee-	.	.	.	.	.	.	.	.	.	.	.
.	.	16B-/ 16gJJ	.	16g/ 16ee-JJ	.	.	.	.	.	.	.	.	.	.	.
8BB-\L	.	16B-/ 16gLL	.	16g/ 16ee-LL	.	.	.	.	.	.	.	.	.	.	.
.	.	16B-/ 16g	.	16g/ 16ee-	.	.	.	.	.	.	.	.	.	.	.
8E-\	.	16B-/ 16g	.	16g/ 16ee-	.	.	.	.	.	.	.	.	.	.	.
.	.	16B-/ 16g	.	16g/ 16ee-	.	.	.	.	.	.	.	.	.	.	.
8G\	.	16B-/ 16g	.	16g/ 16ee-	.	4gg\	.	.	.	.	.	.	.	.	.
.	.	16B-/ 16g	.	16g/ 16ee-	.	.	.	.	.	.	.	.	.	.	.
8E-\J	.	16B-/ 16g	.	16g/ 16ee-	.	.	.	.	.	.	.	.	.	.	.
.	.	16B-/ 16gJJ	.	16g/ 16ee-JJ	.	.	.	.	.	.	.	.	.	.	.
=10	=10	=10	=10	=10	=10	=10	=10	=10	=10	=10	=10	=10	=10	=10	=10
8BB-\L	.	16B-/ 16fLL	.	16f/ 16ddLL	.	8ff\L	.	1B-]	.	(1b-]	.	1dd	.	1ff	.
.	.	16B-/ 16f	.	16f/ 16dd	.	.	.	.	.	.	.	.	.	.	.
8D\	.	16B-/ 16f	.	16f/ 16dd	.	8dd\J	.	.	.	.	.	.	.	.	.
.	.	16B-/ 16f	.	16f/ 16dd	.	.	.	.	.	.	.	.	.	.	.
8F\	.	16B-/ 16f	.	16f/ 16dd	.	4b-\	.	.	.	.	.	.	.	.	.
.	.	16B-/ 16f	.	16f/ 16dd	.	.	.	.	.	.	.	.	.	.	.
8D\J	.	16B-/ 16f	.	16f/ 16dd	.	.	.	.	.	.	.	.	.	.	.
.	.	16B-/ 16fJJ	.	16f/ 16ddJJ	.	.	.	.	.	.	.	.	.	.	.
8BB-\L	.	16B-/ 16fLL	.	16f/ 16ddLL	.	8r	.	.	.	.	.	.	.	.	.
.	.	16B-/ 16f	.	16f/ 16dd	.	.	.	.	.	.	.	.	.	.	.
8D\	.	16B-/ 16f	.	16f/ 16dd	.	8ff|\L	.	.	.	.	.	.	.	.	.
.	.	16B-/ 16f	.	16f/ 16dd	.	.	.	.	.	.	.	.	.	.	.
8F\	.	16B-/ 16f	.	16f/ 16dd	.	8dd|\	.	.	.	.	.	.	.	.	.
.	.	16B-/ 16f	.	16f/ 16dd	.	.	.	.	.	.	.	.	.	.	.
8D\J	.	16B-/ 16f	.	16f/ 16dd	.	8b-|\J	.	.	.	.	.	.	.	.	.
.	.	16B-/ 16fJJ	.	16f/ 16ddJJ	.	.	.	.	.	.	.	.	.	.	.
=11	=11	=11	=11	=11	=11	=11	=11	=11	=11	=11	=11	=11	=11	=11	=11
8AA\L	.	16c/ 16fLL	.	16f/ 16ccLL	.	4ee-\	.	1f	.	1cc)	.	1cc	.	1ee-	.
.	.	16c/ 16f	.	16f/ 16cc	.	.	.	.	.	.	.	.	.	.	.
8C\	.	16c/ 16f	.	16f/ 16cc	.	.	.	.	.	.	.	.	.	.	.
.	.	16c/ 16f	.	16f/ 16cc	.	.	.	.	.	.	.	.	.	.	.
8F\	.	16c/ 16f	.	16f/ 16cc	.	2f/	.	.	.	.	.	.	.	.	.
.	.	16c/ 16f	.	16f/ 16cc	.	.	.	.	.	.	.	.	.	.	.
8C\J	.	16c/ 16f	.	16f/ 16cc	.	.	.	.	.	.	.	.	.	.	.
.	.	16c/ 16fJJ	.	16f/ 16ccJJ	.	.	.	.	.	.	.	.	.	.	.
8AA\L	.	16c/ 16fLL	.	16f/ 16ccLL	.	.	.	.	.	.	.	.	.	.	.
.	.	16c/ 16f	.	16f/ 16cc	.	.	.	.	.	.	.	.	.	.	.
8C\	.	16c/ 16f	.	16f/ 16cc	.	.	.	.	.	.	.	.	.	.	.
.	.	16c/ 16f	.	16f/ 16cc	.	.	.	.	.	.	.	.	.	.	.
8F\	.	16c/ 16f	.	16f/ 16cc	.	4ee-\	.	.	.	.	.	.	.	.	.
.	.	16c/ 16f	.	16f/ 16cc	.	.	.	.	.	.	.	.	.	.	.
8C\J	.	16c/ 16f	.	16f/ 16cc	.	.	.	.	.	.	.	.	.	.	.
.	.	16c/ 16fJJ	.	16f/ 16ccJJ	.	.	.	.	.	.	.	.	.	.	.
=12	=12	=12	=12	=12	=12	=12	=12	=12	=12	=12	=12	=12	=12	=12	=12
!	!LO:DY:b:t=pia	!	!LO:DY:b:t=pia	!	!	!	!	!	!	!	!	!	!	!	!
8BB-\L	p	16B-/ 16fLL	p	16f/ 16ddLL	.	(16dd\LL	.	4b-\	.	4dd\	.	2b-\	.	2dd\	.
.	.	16B-/ 16f	.	16f/ 16dd	.	16cc\	.	.	.	.	.	.	.	.	.
8D\	.	16B-/ 16f	.	16f/ 16dd	.	16dd\	.	.	.	.	.	.	.	.	.
.	.	16B-/ 16f	.	16f/ 16dd	.	16ee-\JJ)	.	.	.	.	.	.	.	.	.
!	!	!	!	!	!	!LO:TX:a:t=|	!	!	!	!	!	!	!	!	!
8F\	.	16B-/ 16f	.	16f/ 16dd	.	4ff\	.	4r	p	4r	.	.	.	.	.
.	.	16B-/ 16f	.	16f/ 16dd	.	.	.	.	.	.	.	.	.	.	.
8D\J	.	16B-/ 16f	.	16f/ 16dd	.	.	.	.	.	.	.	.	.	.	.
.	.	16B-/ 16fJJ	.	16f/ 16ddJJ	.	.	.	.	.	.	.	.	.	.	.
!	!	!	!	!	!LO:DY:b:t=pia	!	!LO:DY:b:t=pia	!	!	!	!	!	!	!	!
8BB-\L	.	16B-/ 16fLL	.	16f/ 16ddLL	p	8r	p	2B-/	.	2b-\	p	2dd\	p	2ff\	p
.	.	16B-/ 16f	.	16f/ 16dd	.	.	.	.	.	.	.	.	.	.	.
8D\	.	16B-/ 16f	.	16f/ 16dd	.	8ff\L	.	.	.	.	.	.	.	.	.
.	.	16B-/ 16f	.	16f/ 16dd	.	.	.	.	.	.	.	.	.	.	.
8F\	.	16B-/ 16f	.	16f/ 16dd	.	8dd\	.	.	.	.	.	.	.	.	.
.	.	16B-/ 16f	.	16f/ 16dd	.	.	.	.	.	.	.	.	.	.	.
8D\J	.	16B-/ 16f	.	16f/ 16dd	.	8b-\J	.	.	.	.	.	.	.	.	.
.	.	16B-/ 16fJJ	.	16f/ 16ddJJ	.	.	.	.	.	.	.	.	.	.	.
=13	=13	=13	=13	=13	=13	=13	=13	=13	=13	=13	=13	=13	=13	=13	=13
8BB-\L	.	16B-/ 16gLL	.	16g/ 16ee-LL	.	4gg\	.	1B-	.	[1b-	.	1ee-	.	1gg	.
.	.	16B-/ 16g	.	16g/ 16ee-	.	.	.	.	.	.	.	.	.	.	.
8E-\	.	16B-/ 16g	.	16g/ 16ee-	.	.	.	.	.	.	.	.	.	.	.
.	.	16B-/ 16g	.	16g/ 16ee-	.	.	.	.	.	.	.	.	.	.	.
!	!	!	!	!	!	!LO:N:vis=4.	!	!	!	!	!	!	!	!	!
8G\	.	16B-/ 16g	.	16g/ 16ee-	.	([4gg\	.	.	.	.	.	.	.	.	.
.	.	16B-/ 16g	.	16g/ 16ee-	.	.	.	.	.	.	.	.	.	.	.
8E-\J	.	16B-/ 16g	.	16g/ 16ee-	.	.	.	.	.	.	.	.	.	.	.
.	.	16B-/ 16gJJ	.	16g/ 16ee-JJ	.	.	.	.	.	.	.	.	.	.	.
8BB-\L	.	16B-/ 16gLL	.	16g/ 16ee-LL	.	16gg\]	.	.	.	.	.	.	.	.	.
.	.	16B-/ 16g	.	16g/ 16ee-	.	16aa\LL	.	.	.	.	.	.	.	.	.
8E-\	.	16B-/ 16g	.	16g/ 16ee-	.	16bb-\)	.	.	.	.	.	.	.	.	.
.	.	16B-/ 16g	.	16g/ 16ee-	.	16aa\JJ	.	.	.	.	.	.	.	.	.
.	.	.	.	.	.	8qqccc/	.	.	.	.	.	.	.	.	.
8G\	.	16B-/ 16g	.	16g/ 16ee-	.	8bb-\L	.	.	.	.	.	.	.	.	.
.	.	16B-/ 16g	.	16g/ 16ee-	.	.	.	.	.	.	.	.	.	.	.
8E-\J	.	16B-/ 16g	.	16g/ 16ee-	.	16aa\L	.	.	.	.	.	.	.	.	.
.	.	16B-/ 16gJJ	.	16g/ 16ee-JJ	.	16gg\JJ	.	.	.	.	.	.	.	.	.
!LO:LB:g=original	!	!	!	!	!	!	!LO:LB:g=original	!	!	!	!	!	!	!	!
=14	=14	=14	=14	=14	=14	=14	=14	=14	=14	=14	=14	=14	=14	=14	=14
.	.	.	.	.	.	8qqgg/	.	.	.	.	.	.	.	.	.
*	*	*	*	*	*	*^	*	*	*	*	*	*	*	*	*
8BB-\L	.	16B-/ 16fLL	.	16f/ 16ddLL	.	8ff\L	2ryy	.	1B-	.	1b-]	.	1dd	.	1ff	.
.	.	16B-/ 16f	.	16f/ 16dd	.	.	.	.	.	.	.	.	.	.	.	.
8D\	.	16B-/ 16f	.	16f/ 16dd	.	16een\L	.	.	.	.	.	.	.	.	.	.
.	.	16B-/ 16f	.	16f/ 16dd	.	16ff\JJ	.	.	.	.	.	.	.	.	.	.
8F\	.	16B-/ 16f	.	16f/ 16dd	.	4ff\	.	.	.	.	.	.	.	.	.	.
.	.	16B-/ 16f	.	16f/ 16dd	.	.	.	.	.	.	.	.	.	.	.	.
8D\J	.	16B-/ 16f	.	16f/ 16dd	.	.	.	.	.	.	.	.	.	.	.	.
.	.	16B-/ 16fJJ	.	16f/ 16ddJJ	.	.	.	.	.	.	.	.	.	.	.	.
8BB-\L	.	16B-/ 16fLL	.	16f/ 16ddLL	.	8r	8ryy	.	.	.	.	.	.	.	.	.
.	.	16B-/ 16f	.	16f/ 16dd	.	.	.	.	.	.	.	.	.	.	.	.
8D\	.	16B-/ 16f	.	16f/ 16dd	.	4dd/	8b-\L	.	.	.	.	.	.	.	.	.
.	.	16B-/ 16f	.	16f/ 16dd	.	.	.	.	.	.	.	.	.	.	.	.
8F\	.	16B-/ 16f	.	16f/ 16dd	.	.	8dd\	.	.	.	.	.	.	.	.	.
.	.	16B-/ 16f	.	16f/ 16dd	.	.	.	.	.	.	.	.	.	.	.	.
8D\J	.	16B-/ 16f	.	16f/ 16dd	.	8ryy	8ff\J	.	.	.	.	.	.	.	.	.
.	.	16B-/ 16fJJ	.	16f/ 16ddJJ	.	.	.	.	.	.	.	.	.	.	.	.
!	!	!	!	!LO:LB:g=original	!	!	!	!	!	!	!	!	!	!	!	!
*	*	*	*	*	*	*v	*v	*	*	*	*	*	*	*	*	*
=15	=15	=15	=15	=15	=15	=15	=15	=15	=15	=15	=15	=15	=15	=15	=15
.	.	.	.	.	.	.	.	.	.	.	.	8qqdd/	.	.	.
8AA\L	.	16c/ 16fLL	.	16f/ 16ccLL	.	(8ff\L	.	1f	.	1cc	.	(1cc	.	(8ff\L	.
.	.	16c/ 16f	.	16f/ 16cc	.	.	.	.	.	.	.	.	.	.	.
8C\	.	16c/ 16f	.	16f/ 16cc	.	8ee-X\J	.	.	.	.	.	.	.	8ee-\J)	.
.	.	16c/ 16f	.	16f/ 16cc	.	.	.	.	.	.	.	.	.	.	.
!	!	!	!	!	!	!LO:N:vis=4.	!	!	!	!	!	!	!	!	!
8F\	.	16c/ 16f	.	16f/ 16cc	.	[4ee-\)	.	.	.	.	.	.	.	2ee-\	.
.	.	16c/ 16f	.	16f/ 16cc	.	.	.	.	.	.	.	.	.	.	.
8C\J	.	16c/ 16f	.	16f/ 16cc	.	.	.	.	.	.	.	.	.	.	.
.	.	16c/ 16fJJ	.	16f/ 16ccJJ	.	.	.	.	.	.	.	.	.	.	.
8AA\L	.	16c/ 16fLL	.	16f/ 16ccLL	.	16ee-\]	.	.	.	.	.	.	.	.	.
.	.	16c/ 16f	.	16f/ 16cc	.	16ff\LL	.	.	.	.	.	.	.	.	.
8C\	.	16c/ 16f	.	16f/ 16cc	.	16gg\	.	.	.	.	.	.	.	.	.
.	.	16c/ 16f	.	16f/ 16cc	.	16ff\JJ	.	.	.	.	.	.	.	.	.
.	.	.	.	.	.	8qqaa/	.	.	.	.	.	.	.	.	.
8F\	.	16c/ 16f	.	16f/ 16cc	.	8gg\L	.	.	.	.	.	.	.	(8gg\L	.
.	.	16c/ 16f	.	16f/ 16cc	.	.	.	.	.	.	.	.	.	.	.
8C\J	.	16c/ 16f	.	16f/ 16cc	.	16ff\L	.	.	.	.	.	.	.	8ee-\J)	.
.	.	16c/ 16fJJ	.	16f/ 16ccJJ	.	16ee-\JJ	.	.	.	.	.	.	.	.	.
!	!	!LO:LB:g=original	!	!	!	!	!	!	!	!	!	!	!	!	!
=16	=16	=16	=16	=16	=16	=16	=16	=16	=16	=16	=16	=16	=16	=16	=16
!	!LO:DY:b:t=for	!	!	!	!LO:DY:b:t=for	!	!LO:DY:b:t=for	!	!	!	!	!	!	!	!
4BB-/	f	4B-/ 4f	.	8b-\	f	8dd\	f	4b-\	.	4dd\	.	4b-/)	.	4dd\	.
.	.	.	.	4dd\	.	4bb-\	.	.	.	.	.	.	.	.	.
4r	.	4r	.	.	.	.	.	4r	.	4r	.	4r	.	4r	.
.	.	.	.	4dd\	.	4bb-\	.	.	.	.	.	.	.	.	.
8B-\|L	.	8b-\L	.	.	.	.	.	4B-/	.	4b-\	.	4b-\	.	4bb-\	.
8A\|	.	8a\	.	4dd\	.	4bb-\	.	.	.	.	.	.	.	.	.
8G\|	.	8g\	.	.	.	.	.	4B-/	.	4b-\	.	4b-\	.	4bb-\	.
8F#X\|J	.	8f#X\J	.	8dd\	.	8bb-\	.	.	.	.	.	.	.	.	.
=17	=17	=17	=17	=17	=17	=17	=17	=17	=17	=17	=17	=17	=17	=17	=17
4G\	.	4g\	.	8dd\	.	8bb-\	.	4B-/	.	4b-\	.	4dd\	.	4bb-\	.
.	.	.	.	4dd\	.	4bb-\	.	.	.	.	.	.	.	.	.
16r	.	4r	.	.	.	.	.	4r	.	4r	.	4r	.	4r	.
(16GG/LL	.	.	.	.	.	.	.	.	.	.	.	.	.	.	.
16BB-/	.	.	.	4dd\	.	4bb-\	.	.	.	.	.	.	.	.	.
16D/JJ)	.	.	.	.	.	.	.	.	.	.	.	.	.	.	.
8G\L	.	8g\L	.	.	.	.	.	4B-/	.	4b-\	.	4dd\	.	4bb-\	.
!LO:TX:t=P:problem:kasownik nad nutą	!	!	!	!	!	!	!	!	!	!	!	!	!	!	!
8Fn\	.	8fn\	.	4dd\	.	4bb-\	.	.	.	.	.	.	.	.	.
8E-\	.	8e-X\	.	.	.	.	.	4B-/	.	4b-\	.	4dd\	.	4bb-\	.
8D\J	.	8d\J	.	8dd\	.	8bb-\	.	.	.	.	.	.	.	.	.
=18	=18	=18	=18	=18	=18	=18	=18	=18	=18	=18	=18	=18	=18	=18	=18
4E-\|	.	4e-\	.	16b-/LL	.	16bb-\LL	.	4B-/	.	4b-\	.	2dd\	.	1bb-	.
.	.	.	.	16a/	.	16aa\	.	.	.	.	.	.	.	.	.
.	.	.	.	16g/	.	16gg\	.	.	.	.	.	.	.	.	.
.	.	.	.	16f/JJ	.	16ff\JJ	.	.	.	.	.	.	.	.	.
4D\|	.	4f\	.	16b-/LL	.	16bb-\LL	.	4B-/	.	4b-\	.	.	.	.	.
!	!	!	!	!	!	!	!	!LO:LB:g=original	!	!	!	!	!	!	!
.	.	.	.	16a/	.	16aa\	.	.	.	.	.	.	.	.	.
.	.	.	.	16g/	.	16gg\	.	.	.	.	.	.	.	.	.
.	.	.	.	16f/JJ	.	16ff\JJ	.	.	.	.	.	.	.	.	.
(4.E-\	.	2g\	.	16b-/LL	.	16bb-\LL	.	4B-/	.	4b-\	.	2dd\	.	.	.
.	.	.	.	16a/	.	16aa\	.	.	.	.	.	.	.	.	.
.	.	.	.	16g/	.	16gg\	.	.	.	.	.	.	.	.	.
.	.	.	.	16f/JJ	.	16ff\JJ	.	.	.	.	.	.	.	.	.
.	.	.	.	16e-/LL	.	16ee-\LL	.	4B-/	.	4b-\	.	.	.	.	.
!	!	!	!	!	!	!	!	!	!	!LO:LB:g=original	!	!	!	!	!
.	.	.	.	16d/	.	16dd\	.	.	.	.	.	.	.	.	.
8En\)	.	.	.	16c/	.	16cc\	.	.	.	.	.	.	.	.	.
.	.	.	.	16B-/JJ	.	16b-\JJ	.	.	.	.	.	.	.	.	.
=19	=19	=19	=19	=19	=19	=19	=19	=19	=19	=19	=19	=19	=19	=19	=19
4F\	.	4f\	.	4A/	.	4ff\	.	4f/	.	4cc\	.	4cc\	.	4aa\	.
8.C\L	.	8.f\L	.	8.A/L 8.f	.	8.A/L 8.f	.	8.f/L	.	8.cc\L	.	8.cc\L	.	8.aa\L	.
16AA\Jk	.	16f\Jk	.	16A/Jk 16f	.	16A/Jk 16f	.	16f/Jk	.	16cc\Jk	.	16cc\Jk	.	16aa\Jk	.
!LO:LB:g=original	!	!	!	!	!	!LO:LB:g=original	!	!	!	!	!	!	!	!	!
4FF/	.	4f\	.	4A/ 4f	.	4A/ 4f	.	4f/	.	4cc\	.	4cc\	.	4aa\	.
4r	.	4r	.	4r	.	4r	.	4r	.	4r	.	4r	.	4r	.
!	!	!	!	!	!	!	!	!	!	!	!	!LO:LB:g=original	!	!LO:LB:g=original	!
=20	=20	=20	=20	=20	=20	=20	=20	=20	=20	=20	=20	=20	=20	=20	=20
!	!LO:DY:b:t=pia	!	!	!	!	!LO:TX:b:t=dolce	!	!LO:TX:a:t=12	!	!LO:TX:a:t=12	!	!LO:TX:a:t=12	!	!LO:TX:a:t=12	!
4F\	p	4c\	.	4.c/	pp	4.cc\	.	1r	.	1r	.	1r	.	1r	.
4r	.	4r	.	.	.	.	.	.	.	.	.	.	.	.	.
.	.	.	.	8B-/	.	8b-\	.	.	.	.	.	.	.	.	.
4F\	.	4c\	.	8A/L	.	8a|\L	.	.	.	.	.	.	.	.	.
.	.	.	.	(8f/	.	(8ff\	.	.	.	.	.	.	.	.	.
!	!	!	!	!LO:TX:t=P:problem:kasownik nad nutą	!	!	!	!	!	!	!	!	!	!	!
4r	.	4r	.	8en/	.	8een\	.	.	.	.	.	.	.	.	.
.	.	.	.	8d/J)	.	8dd\J)	.	.	.	.	.	.	.	.	.
!	!	!	!	!LO:LB:g=original	!	!	!	!	!	!	!	!	!	!	!
=21	=21	=21	=21	=21	=21	=21	=21	=21	=21	=21	=21	=21	=21	=21	=21
4G\	.	4g\	.	8c/L	.	(8cc/L	p	1r	.	1r	.	1r	.	1r	.
.	.	.	.	(8B-/	.	8b-/	.	.	.	.	.	.	.	.	.
4r	.	4r	.	8An/	.	8a/)	.	.	.	.	.	.	.	.	.
!	!	!	!	!	!	!LO:TX:a:t=	!	!	!	!	!	!	!	!	!
.	.	.	.	8B-/J)	.	8b-/J	.	.	.	.	.	.	.	.	.
(8G\L	.	8b-X\L	.	2B-/	.	2b-\	.	.	.	.	.	.	.	.	.
8F\	.	8a\	.	.	.	.	.	.	.	.	.	.	.	.	.
8E-\	.	8g\	.	.	.	.	.	.	.	.	.	.	.	.	.
8D\J)	.	8f\J	.	.	.	.	.	.	.	.	.	.	.	.	.
!	!	!LO:LB:g=original	!	!	!	!	!	!	!	!	!	!	!	!	!
=22	=22	=22	=22	=22	=22	=22	=22	=22	=22	=22	=22	=22	=22	=22	=22
4C/	.	4g\	.	4.B-/	.	4.b-/	.	1r	.	1r	.	1r	.	1r	.
4r	.	4r	.	.	.	.	.	.	.	.	.	.	.	.	.
.	.	.	.	8A/	.	8a/	.	.	.	.	.	.	.	.	.
!	!	!	!	!	!	!LO:TX:a:t=	!	!	!	!	!	!	!	!	!
4En\	.	4g\	.	8G/L	.	8g/L	.	.	.	.	.	.	.	.	.
.	.	.	.	(8d/	.	(8dd/	.	.	.	.	.	.	.	.	.
4r	.	4r	.	8c/	.	8cc/	.	.	.	.	.	.	.	.	.
.	.	.	.	8B-/J)	.	8b-/J)	.	.	.	.	.	.	.	.	.
=23	=23	=23	=23	=23	=23	=23	=23	=23	=23	=23	=23	=23	=23	=23	=23
!	!	!	!	!	!	!LO:TX:a:t=	!	!	!	!	!	!	!	!	!
4F\	.	4f\	.	8B-/L	.	8b-/L	.	1r	.	1r	.	1r	.	1r	.
.	.	.	.	8A/	.	(8a/	.	.	.	.	.	.	.	.	.
4r	.	4r	.	8G#X/	.	8g#X/	.	.	.	.	.	.	.	.	.
.	.	.	.	8A/J	.	8a/J)	.	.	.	.	.	.	.	.	.
4F\	.	4c\	.	2A/	.	2a/	.	.	.	.	.	.	.	.	.
4FF/	.	4c\	.	.	.	.	.	.	.	.	.	.	.	.	.
=24	=24	=24	=24	=24	=24	=24	=24	=24	=24	=24	=24	=24	=24	=24	=24
4BB-X/	.	4d\	.	2r	.	(8g/L	.	1r	.	1r	.	1r	.	1r	.
.	.	.	.	.	.	8f#X/	.	.	.	.	.	.	.	.	.
4r	.	4r	.	.	.	8a/	.	.	.	.	.	.	.	.	.
.	.	.	.	.	.	8g/J)	.	.	.	.	.	.	.	.	.
2r	.	2r	.	(8g/L	.	(8b-/L	.	.	.	.	.	.	.	.	.
.	.	.	.	8f#X/)	.	8a/	.	.	.	.	.	.	.	.	.
.	.	.	.	(8a/	.	8cc/	.	.	.	.	.	.	.	.	.
.	.	.	.	8g/J)	.	8b-/J)	.	.	.	.	.	.	.	.	.
=25	=25	=25	=25	=25	=25	=25	=25	=25	=25	=25	=25	=25	=25	=25	=25
.	.	.	.	.	.	8qqcc#X/	.	.	.	.	.	.	.	.	.
4r	.	4r	.	4b-\	.	4dd\	.	1r	.	1r	.	1r	.	1r	.
4BB-/	.	4B-/	.	2b-\	.	2dd\	.	.	.	.	.	.	.	.	.
4B-\	.	4b-\	.	.	.	.	.	.	.	.	.	.	.	.	.
.	.	.	.	.	.	16qqgg/	.	.	.	.	.	.	.	.	.
4BB-/	.	4B-/	.	4b-\	.	8ff\L	.	.	.	.	.	.	.	.	.
!LO:LB:g=original	!	!	!	!	!	!	!	!	!	!	!	!	!	!	!
.	.	.	.	.	.	16ee-\L	.	.	.	.	.	.	.	.	.
.	.	.	.	.	.	16dd\JJ	.	.	.	.	.	.	.	.	.
!	!	!	!	!	!	!LO:LB:g=original	!	!	!	!	!	!	!	!	!
=26	=26	=26	=26	=26	=26	=26	=26	=26	=26	=26	=26	=26	=26	=26	=26
4F\	.	4f\	.	8.a/L	.	8.cc\L	.	1r	.	1r	.	1r	.	1r	.
.	.	.	.	32b-/LL	.	(32dd\LL	.	.	.	.	.	.	.	.	.
.	.	.	.	32a/JJJ	.	32cc\JJJ)	.	.	.	.	.	.	.	.	.
4r	.	4r	.	(8g/L	.	(8b-\L	.	.	.	.	.	.	.	.	.
.	.	.	.	8f/J)	.	8a\J)	.	.	.	.	.	.	.	.	.
4FF/	.	4F/	.	8.a/L	.	8.cc\L	.	.	.	.	.	.	.	.	.
.	.	.	.	(32b-/LL	.	(32dd\LL	.	.	.	.	.	.	.	.	.
.	.	.	.	32a/JJJ)	.	32cc\JJJ)	.	.	.	.	.	.	.	.	.
4r	.	4r	.	8g/L	.	8b-/L	.	.	.	.	.	.	.	.	.
.	.	.	.	8f/J	.	8a/J	.	.	.	.	.	.	.	.	.
!	!	!	!	!LO:LB:g=original	!	!	!	!	!	!	!	!	!	!	!
=27	=27	=27	=27	=27	=27	=27	=27	=27	=27	=27	=27	=27	=27	=27	=27
4BB-/	.	4B-/	.	4.d/	.	(8g/L	.	1r	.	1r	.	1r	.	1r	.
.	.	.	.	.	.	8f#X/	.	.	.	.	.	.	.	.	.
4B-\	.	4B-/	.	.	.	8g/)	.	.	.	.	.	.	.	.	.
.	.	.	.	8b-\	.	8dd/|>J	.	.	.	.	.	.	.	.	.
4c\	.	4c/	.	(8a/L	.	(8cc\L	.	.	.	.	.	.	.	.	.
.	.	.	.	8g/	.	8b-\)	.	.	.	.	.	.	.	.	.
4C/	.	4C/	.	8f/)	.	8a'\	.	.	.	.	.	.	.	.	.
.	.	.	.	8e-/|J	.	8g'\J	.	.	.	.	.	.	.	.	.
=28	=28	=28	=28	=28	=28	=28	=28	=28	=28	=28	=28	=28	=28	=28	=28
4r	.	4r	.	(2e-/	.	(2g#X/	.	1r	.	1r	.	1r	.	1r	.
(4E-\	.	(4e-\	.	.	.	.	.	.	.	.	.	.	.	.	.
4F\	.	4f\	.	4f/)	.	4a/)	.	.	.	.	.	.	.	.	.
4FF/|)	.	4F/)	.	4r	.	4r	.	.	.	.	.	.	.	.	.
=29	=29	=29	=29	=29	=29	=29	=29	=29	=29	=29	=29	=29	=29	=29	=29
.	.	.	.	.	.	(16qqb-/LL	.	.	.	.	.	.	.	.	.
.	.	.	.	.	.	16qqcc/JJ)	.	.	.	.	.	.	.	.	.
4r	.	4r	.	4b-\	.	4dd\	.	1r	.	1r	.	1r	.	1r	.
(4BB-/	.	(4B-/	.	2b-\	.	2dd\	.	.	.	.	.	.	.	.	.
4D/|)	.	4d/	.	.	.	.	.	.	.	.	.	.	.	.	.
.	.	.	.	.	.	16qqgg/	.	.	.	.	.	.	.	.	.
4En/	.	4en\)	.	4b-\	.	8ff\L	.	.	.	.	.	.	.	.	.
!	!	!LO:LB:g=original	!	!	!	!LO:SIC:s=16een	!	!	!	!	!	!	!	!	!
.	.	.	.	.	.	16ee-\L	.	.	.	.	.	.	.	.	.
.	.	.	.	.	.	16dd\JJ	.	.	.	.	.	.	.	.	.
=30	=30	=30	=30	=30	=30	=30	=30	=30	=30	=30	=30	=30	=30	=30	=30
4F\	.	4f\	.	8.a/L	.	8.cc\L	.	1r	.	1r	.	1r	.	1r	.
.	.	.	.	(32b-/LL	.	32dd\LL	.	.	.	.	.	.	.	.	.
.	.	.	.	32a/JJJ)	.	32cc\JJJ	.	.	.	.	.	.	.	.	.
4r	.	4r	.	8g/L	.	8b-\L	.	.	.	.	.	.	.	.	.
.	.	.	.	8f/J	.	8a\J	.	.	.	.	.	.	.	.	.
4FF/	.	4F/	.	8.a/L	.	8.cc\L	.	.	.	.	.	.	.	.	.
.	.	.	.	32b-/LL	.	32dd\LL	.	.	.	.	.	.	.	.	.
.	.	.	.	32a/JJJ	.	32cc\JJJ	.	.	.	.	.	.	.	.	.
4r	.	4r	.	8g/L	.	8b-\L	.	.	.	.	.	.	.	.	.
.	.	.	.	8f/J	.	8a\J	.	.	.	.	.	.	.	.	.
=31	=31	=31	=31	=31	=31	=31	=31	=31	=31	=31	=31	=31	=31	=31	=31
*	*	*	*	*Xtremolo	*	*	*	*	*	*	*	*	*	*	*
4r	.	4r	.	(8dd\L	.	(8ff\L	.	1r	.	1r	.	1r	.	1r	.
.	.	.	.	8b-\	.	8dd\)	.	.	.	.	.	.	.	.	.
4B-\	.	4b-\	.	8b-\	.	(8dd\	.	.	.	.	.	.	.	.	.
.	.	.	.	8g\J)	.	8b-\J)	.	.	.	.	.	.	.	.	.
4c\	.	4cc\	.	4f/	.	4a/	.	.	.	.	.	.	.	.	.
!	!	!	!	!LO:TX:a:t=t	!	!LO:TX:a:t=t	!	!	!	!	!	!	!	!	!
4C/	.	4c/	.	4en/	.	4g/	.	.	.	.	.	.	.	.	.
!	!	!	!	!	!	!LO:LB:g=original	!	!	!	!	!	!	!	!	!
=32	=32	=32	=32	=32	=32	=32	=32	=32	=32	=32	=32	=32	=32	=32	=32
!LO:TX:a:t=1	!	!	!	!LO:HP:t=cres	!	!LO:HP:t=cres	!	!	!	!	!	!	!	!LO:TX:a:t=Solo	!
!	!	!	!LO:HP:t=cres	!	!	!	!	!	!	!	!	!	!	!	!
*	*	*Xtremolo	*	*	*	*	*	*	*	*	*	*	*	*	*
8F\L	.	8f\L	<	8f/L	<	(8f'/L	<	[1f	p	[1ff	.	1ff	p	4ff\	.
8F\	.	8f\	.	8A/	.	8f'/	.	.	.	.	.	.	.	.	.
8F\	.	8f\	.	8A/	.	8f'/	.	.	.	.	.	.	.	2ff\	.
8F\J	.	8f\J	.	8A/J	.	8f'/J)	.	.	.	.	.	.	.	.	.
*	*	*tremolo	*	*	*	*	*	*	*	*	*	*	*	*	*
8F\L	.	8f\L	[[	(8c/L	.	(8a/L	.	.	.	.	.	.	.	.	.
8F\	.	8f\	.	8A/)	.	8f/)	.	.	.	.	.	.	.	.	.
8F\	.	8f\	.	8A'/	.	8f'/	.	.	.	.	.	.	.	(16aa\LL	.
.	.	.	.	.	.	.	.	.	.	.	.	.	.	16ff\)	.
8F\J	.	8f\J	.	8A'/J	[[	8f'/J	[[	.	.	.	.	.	.	16ee-\	.
!	!	!	!	!LO:LB:g=original	!	!	!	!	!	!	!	!	!	!	!
.	.	.	.	.	.	.	.	.	.	.	.	.	.	16ff\JJ	.
=33	=33	=33	=33	=33	=33	=33	=33	=33	=33	=33	=33	=33	=33	=33	=33
!LO:TX:a:t=2	!	!	!	!	!	!	!	!	!	!	!	!	!	!	!
8F\L	.	8f\L	.	8en/L	.	(8g'/L	.	1f]	.	1ff_	.	1een	.	4gg\	.
8F\	.	8f\	.	8e/	.	8g'/	.	.	.	.	.	.	.	.	.
8F\	.	8f\	.	8e/	.	8g'/	.	.	.	.	.	.	.	2gg\	.
8F\J	.	8f\J	.	8e/J	.	8g'/J)	.	.	.	.	.	.	.	.	.
8F\L	.	8f\L	.	(8g/L	.	(8b-/L	.	.	.	.	.	.	.	.	.
8F\	.	8f\	.	8e/)	.	8g/)	.	.	.	.	.	.	.	.	.
8F\	.	8f\	.	8e'/	.	8g'/	.	.	.	.	.	.	.	16bb-\LL	.
.	.	.	.	.	.	.	.	.	.	.	.	.	.	16gg\	.
8F\J	.	8f\J	.	8e'/J	.	8g'/J	.	.	.	.	.	.	.	16ff#X\	.
.	.	.	.	.	.	.	.	.	.	.	.	.	.	16gg\JJ	.
=34	=34	=34	=34	=34	=34	=34	=34	=34	=34	=34	=34	=34	=34	=34	=34
!LO:TX:a:t=3	!	!	!	!	!	!	!	!LO:HP:t=cres	!	!	!	!	!	!	!
8F\L	.	8f\L	.	8f'/L	.	(8a'/L	.	[1f	<[	1ff_	.	1ee-X	.	4aa\	.
8F\	.	8f\	.	8f'/	.	8a'/	.	.	.	.	.	.	.	.	.
8F\	.	8f\	.	8f'/	.	8a'/	.	.	.	.	.	.	.	2aa\	.
8F\J	.	8f\J	.	8f'/J	.	8a'/J)	.	.	.	.	.	.	.	.	.
8F\L	.	8f\L	.	(8a/L	.	(8cc'/L	.	.	.	.	.	.	.	.	.
8F\	.	8f\	.	8f/)	.	8a'/)	.	.	.	.	.	.	.	.	.
8F\	.	8f\	.	8f'/	.	8a'/	.	.	.	.	.	.	.	(16ccc\LL	.
.	.	.	.	.	.	.	.	.	.	.	.	.	.	16aa\	.
8F\J	.	8f\J	.	8f'/J	.	8a'/J	.	.	.	.	.	.	.	16gg\	.
!LO:LB:g=original	!	!	!	!	!	!	!	!	!	!	!	!	!	!	!
.	.	.	.	.	.	.	.	.	.	.	.	.	.	16aa\JJ)	.
=35	=35	=35	=35	=35	=35	=35	=35	=35	=35	=35	=35	=35	=35	=35	=35
!LO:TX:a:t=4	!	!	!	!	!	!	!	!	!	!	!	!	!	!	!
*	*	*	*	*tremolo	*	*	*	*	*	*	*	*	*	*	*
8F\L	.	8f\L	.	8g/|L	.	(8b-'\L	.	1f_	.	1ff]	.	2.dd\	.	4bb-\	.
8F\	.	8f\	.	8g/|	.	8b-'\	.	.	.	.	.	.	.	.	.
8F\	.	8f\	.	8g/|	.	8b-'\	.	.	.	.	.	.	.	2bb-\	.
8F\J	.	8f\J	.	8g/|J	.	8b-'\J)	.	.	.	.	.	.	.	.	.
8F\L	.	8f\L	.	(8b-/L	.	(8dd\L	.	.	.	.	.	.	.	.	.
8F\	.	8f\	.	8g/)	.	8b-\)	.	.	.	.	.	.	.	.	.
8F\	.	8f\	.	8g'/	.	8b-'\	.	.	.	.	.	4bb-\	.	16ddd\LL	.
.	.	.	.	.	.	.	.	.	.	.	.	.	.	(16bb-\	.
8F\J	.	8f\J	.	8g'/J	.	8b-'\J	.	.	.	.	.	.	.	16aa\	.
.	.	.	.	.	.	.	.	.	.	.	.	.	.	16bb-\JJ)	.
=36	=36	=36	=36	=36	=36	=36	=36	=36	=36	=36	=36	=36	=36	=36	=36
4F\	.	4f\	.	(8a/L	.	(8cc'\L	.	4f/]	.	4ff\	.	8aa'\L	.	8ccc\L	.
.	.	.	.	8g/	.	8b-'\	.	.	.	.	.	8gg'\	.	8bb-\	.
4r	.	4r	.	8f/)	.	8a'\	.	4r	.	4r	.	8ff'\	.	8aa\	.
.	.	.	.	8e-X/|J	.	8g'\J)	.	.	.	.	.	8ee-X'\J	.	8gg\J	.
4r	.	4r	.	(8d/L	.	8f/L	.	2r	.	2r	.	8dd\L	.	8ff\L	.
!	!	!	!	!	!	!LO:TX:t=P:problem:bemol pod nutą	!	!	!	!	!	!	!	!LO:TX:t=P:problem:bemol nad nutą	!
.	.	.	.	8c/	.	8e-X/	.	.	.	.	.	8cc\	.	8ee-X\	.
4F\	.	4f\	.	8B-/)	.	8d/	.	.	.	.	.	8b-\	.	8dd\	.
.	.	.	.	8A/|J	.	8c#X/J	.	.	.	.	.	8a\J	.	8cc#X\J	.
=37	=37	=37	=37	=37	=37	=37	=37	=37	=37	=37	=37	=37	=37	=37	=37
!	!	!	!	!	!	!	!	!	!	!LO:TX:a:t=1	!	!	!	!	!
4B-\	.	4B-/	.	4d/	.	4d/	.	1r	.	1r	.	4b-\	.	8dd\L	.
.	.	.	.	.	.	.	.	.	.	.	.	.	.	16ee-\L	.
.	.	.	.	.	.	.	.	.	.	.	.	.	.	16ff#X\JJ	.
4r	.	4r	.	4r	.	4r	.	.	.	.	.	4r	.	16gg\LL	.
.	.	.	.	.	.	.	.	.	.	.	.	.	.	16aa\	.
!	!	!	!	!	!	!	!	!	!	!	!	!	!	!LO:TX:t=P:problem:bemol nad nutą	!
.	.	.	.	.	.	.	.	.	.	.	.	.	.	16bb-X\	.
!	!	!	!	!	!	!	!	!	!	!	!	!	!	!LO:TX:t=P:problem:kasownik nad nutą	!
.	.	.	.	.	.	.	.	.	.	.	.	.	.	16cccn\JJ	.
!	!	!	!	!	!	!	!	!	!	!	!	!	!	!LO:LB:g=original	!
4r	.	4r	.	4d/	.	4r	.	.	.	.	.	4r	.	8ddd\|L	.
.	.	.	.	.	.	.	.	.	.	.	.	.	.	(8bb-\	.
4B-\	.	4B-/	.	4g/	.	4b-/	.	.	.	.	.	4dd\	.	8aa\	.
!	!	!LO:LB:g=original	!	!	!	!	!	!	!	!	!	!	!	!	!
.	.	.	.	.	.	.	.	.	.	.	.	.	.	8gg\J)	.
=38	=38	=38	=38	=38	=38	=38	=38	=38	=38	=38	=38	=38	=38	=38	=38
*	*	*	*	*	*	*tremolo	*	*	*	*	*	*	*	*	*
8c\L	.	8c/L	.	8f/L	.	8a/L	.	2ff\	.	2ff\	.	2.ff\	.	2ff\	.
8c\	.	8c/	.	8f/	.	8a/	.	.	.	.	.	.	.	.	.
8c\	.	8c/	.	8f/	.	8a/	.	.	.	.	.	.	.	.	.
8c\J	.	8c/J	.	8f/J	.	8a/J	.	.	.	.	.	.	.	.	.
!	!	!	!	!	!	!	!	!	!	!	!	!	!	!LO:TX:a:t=t	!
*	*	*	*	*Xtremolo	*	*	*	*	*	*	*	*	*	*	*
8C/L	.	8c/L	.	8f/L	.	8g/L	.	2cc\	.	2gg\	.	.	.	2gg\	.
!	!	!	!	!	!	!LO:LB:g=original	!	!LO:LB:g=original	!	!	!	!	!	!	!
8C/	.	8c/	.	8f/	.	8g/	.	.	.	.	.	.	.	.	.
!	!	!	!	!	!	!	!	!	!	!	!	!LO:TX:a:t=t	!	!	!
8C/	.	8c/	.	8en/	.	8g/	.	.	.	.	.	4een\	.	.	.
8C/J	.	8c/J	.	8e/J	.	8g/J	.	.	.	.	.	.	.	.	.
!	!	!	!	!LO:LB:g=original	!	!	!	!	!	!	!	!	!	!	!
=39	=39	=39	=39	=39	=39	=39	=39	=39	=39	=39	=39	=39	=39	=39	=39
!	!	!	!	!	!LO:DY:b:t=cres rinf	!	!LO:DY:b:t=rin for	!	!	!	!	!	!	!	!
4F\	.	4f\	.	8f/L	rfz	8a/|>L	rfz	4f/	.	4ff\	.	4ff\	.	4ff\	.
.	.	.	.	8a/	.	8cc/|>	.	.	.	.	.	.	.	.	.
4r	.	4r	.	8b-/	.	8dd/|>	.	4r	.	4r	.	4r	.	4r	.
.	.	.	.	8cc/J	.	8een/|>J	.	.	.	.	.	.	.	.	.
2r	.	2r	.	8dd\L	.	8ff'\L	.	2r	.	2r	.	2r	.	2r	.
!	!	!	!	!LO:SIC:s=8een	!	!	!	!	!	!	!	!LO:LB:g=original	!	!	!
.	.	.	.	8ee-\	.	8gg'\	.	.	.	.	.	.	.	.	.
.	.	.	.	8ff\	.	8aa'\	.	.	.	.	.	.	.	.	.
.	.	.	.	8gg\J	[[	8bb-'\J	.	.	.	.	.	.	.	.	.
=40	=40	=40	=40	=40	=40	=40	=40	=40	=40	=40	=40	=40	=40	=40	=40
!	!LO:DY:b:t=rin for	!	!	!	!	!	!	!	!	!	!	!	!	!	!
(8F\L	rfz	(8A/L	.	1aa	.	1ccc	.	1r	.	1r	.	1r	.	1r	.
!	!	!	!	!	!	!	!	!	!	!LO:LB:g=original	!	!	!	!	!
8G\	.	8B-/	.	.	.	.	.	.	.	.	.	.	.	.	.
8A\	.	8c/	.	.	.	.	.	.	.	.	.	.	.	.	.
8B-\J	.	8d/J)	.	.	.	.	.	.	.	.	.	.	.	.	.
8c\L	.	(8en\L	.	.	.	.	.	.	.	.	.	.	.	.	.
8d\)	.	8f\	.	.	.	.	.	.	.	.	.	.	.	.	.
8en\	.	8g\	.	.	.	.	.	.	.	.	.	.	.	.	.
8f\J	.	8a\J)	.	.	.	.	.	.	.	.	.	.	.	.	.
=41	=41	=41	=41	=41	=41	=41	=41	=41	=41	=41	=41	=41	=41	=41	=41
*	*	*	*	*	*	*^	*	*	*	*	*	*	*	*	*
!LO:TX:t=P:problem:mixed beam	!	!	!	!	!	!	!	!	!	!	!	!	!	!	!	!
!	!LO:DY:b:t=fortiſ	!	!	!	!LO:DY:b:t=for	!	!	!LO:DY:b:t=fortiſsimo	!	!	!	!	!	!LO:DY:b:t=for	!	!LO:DY:b:t=for
8C/L	ff	8g\L	.	16cc\LL	f	4een/	4b-X\	ff	[1c	.	[1cc	.	1b-X	f	1een	f
.	.	.	.	16cc\	.	.	.	.	.	.	.	.	.	.	.	.
8c\	.	8g\	.	16cc\	.	.	.	.	.	.	.	.	.	.	.	.
.	.	.	.	16cc\JJ	.	.	.	.	.	.	.	.	.	.	.	.
*	*	*	*	*tremolo	*	*	*	*	*	*	*	*	*	*	*	*
8c\	.	8g\	.	16cc\LL	.	2ee/	2b-\	.	.	.	.	.	.	.	.	.
.	.	.	.	16cc\	.	.	.	.	.	.	.	.	.	.	.	.
8c\J	.	8g\J	.	16cc\	.	.	.	.	.	.	.	.	.	.	.	.
!LO:LB:g=original	!	!	!	!	!	!	!	!	!	!	!	!	!	!	!	!
.	.	.	.	16cc\JJ	.	.	.	.	.	.	.	.	.	.	.	.
8B-X\L	.	8b-X\L	.	16cc\LL	.	.	.	.	.	.	.	.	.	.	.	.
.	.	.	.	16cc\	.	.	.	.	.	.	.	.	.	.	.	.
8B-X\	.	8b-X\	.	16cc\	.	.	.	.	.	.	.	.	.	.	.	.
.	.	.	.	16cc\	.	.	.	.	.	.	.	.	.	.	.	.
8B-X\	.	8b-X\	.	16cc\	.	16bb-\LL	4ryy	.	.	.	.	.	.	.	.	.
.	.	.	.	16cc\	.	16gg\	.	.	.	.	.	.	.	.	.	.
8B-X\J	.	8b-X\J	.	16cc\	.	16ff\	.	.	.	.	.	.	.	.	.	.
.	.	.	.	16cc\JJ	.	16ee\JJ	.	.	.	.	.	.	.	.	.	.
*	*	*	*	*	*	*v	*v	*	*	*	*	*	*	*	*	*
=42	=42	=42	=42	=42	=42	=42	=42	=42	=42	=42	=42	=42	=42	=42	=42
8A\L	.	8a\L	.	16cc\LL	.	4a/ 4ff	.	1c]	.	1cc_	.	1a	.	1ff	.
.	.	.	.	16cc\	.	.	.	.	.	.	.	.	.	.	.
8A\	.	8a\	.	16cc\	.	.	.	.	.	.	.	.	.	.	.
.	.	.	.	16cc\	.	.	.	.	.	.	.	.	.	.	.
8A\	.	8a\	.	16cc\	.	2a/ 2ff	.	.	.	.	.	.	.	.	.
.	.	.	.	16cc\	.	.	.	.	.	.	.	.	.	.	.
8A\J	.	8a\J	.	16cc\	.	.	.	.	.	.	.	.	.	.	.
.	.	.	.	16cc\JJ	.	.	.	.	.	.	.	.	.	.	.
8F\L	.	8f\L	.	16cc\LL	.	.	.	.	.	.	.	.	.	.	.
.	.	.	.	16cc\	.	.	.	.	.	.	.	.	.	.	.
8F\	.	8f\	.	16cc\	.	.	.	.	.	.	.	.	.	.	.
.	.	.	.	16cc\	.	.	.	.	.	.	.	.	.	.	.
8F\	.	8f\	.	16cc\	.	16ccc\LL	.	.	.	.	.	.	.	.	.
.	.	.	.	16cc\	.	16aa\	.	.	.	.	.	.	.	.	.
8F\J	.	8f\J	.	16cc\	.	16gg\	.	.	.	.	.	.	.	.	.
.	.	.	.	16cc\JJ	.	16ff\JJ	.	.	.	.	.	.	.	.	.
=43	=43	=43	=43	=43	=43	=43	=43	=43	=43	=43	=43	=43	=43	=43	=43
!LO:SIC:s=2En	!	!LO:SIC:s=2en	!	!	!	!	!	!	!	!	!	!	!	!	!
8E-\L	.	8e-\L	.	16cc\LL	.	(4gg\	.	[1c	.	1cc_	.	2een\	.	2gg\	.
.	.	.	.	16cc\	.	.	.	.	.	.	.	.	.	.	.
8E-\	.	8e-\	.	16cc\	.	.	.	.	.	.	.	.	.	.	.
.	.	.	.	16cc\	.	.	.	.	.	.	.	.	.	.	.
*	*	*	*	*	*	*Xtremolo	*	*	*	*	*	*	*	*	*
8E-\	.	8e-\	.	16cc\	.	16gg\LL)	.	.	.	.	.	.	.	.	.
.	.	.	.	16cc\	.	16aa\	.	.	.	.	.	.	.	.	.
8E-\J	.	8e-\J	.	16cc\	.	16gg\	.	.	.	.	.	.	.	.	.
.	.	.	.	16cc\JJ	.	16aa\JJ	.	.	.	.	.	.	.	.	.
8C/L	.	8c/L	.	16gg\LL	.	16bb-\LL	.	.	.	.	.	2gg\	.	2bb-\	.
.	.	.	.	16ff\	.	16aa\	.	.	.	.	.	.	.	.	.
!	!	!	!	!LO:SIC:s=16een	!	!	!	!	!	!	!	!	!	!	!
8C/	.	8c/	.	16ee-\	.	16gg\	.	.	.	.	.	.	.	.	.
.	.	.	.	16dd\JJ	.	16ff\JJ	.	.	.	.	.	.	.	.	.
!	!	!	!	!	!	!LO:SIC:s=16een	!	!	!	!	!	!	!	!	!
8C/	.	8c/	.	16cc\LL	.	16ee-\LL	.	.	.	.	.	.	.	.	.
.	.	.	.	16b-\	.	16dd\	.	.	.	.	.	.	.	.	.
8C/J	.	8c/J	.	16a\	.	16cc\	.	.	.	.	.	.	.	.	.
.	.	.	.	16g\JJ	.	16b-\JJ	.	.	.	.	.	.	.	.	.
=44	=44	=44	=44	=44	=44	=44	=44	=44	=44	=44	=44	=44	=44	=44	=44
*Xtremolo	*	*Xtremolo	*	*	*	*Xtremolo	*	*	*	*	*	*	*	*	*
8F\L	.	8f\L	.	16a/LL	.	16aa\LL	.	4c/]	.	4cc\]	.	4cc/	.	4aa\	.
.	.	.	.	16a/	.	16aa\	.	.	.	.	.	.	.	.	.
8F\	.	8f\	.	16a/	.	16aa\	.	.	.	.	.	.	.	.	.
.	.	.	.	16a/JJ	.	16aa\JJ	.	.	.	.	.	.	.	.	.
!	!	!	!	!	!	!LO:LB:g=original	!	!	!	!	!	!	!	!	!
8G\	.	8g\	.	16g/LL	.	16gg\LL	.	4r	.	4r	.	4b-/	.	4gg\	.
.	.	.	.	16g/	.	16gg\	.	.	.	.	.	.	.	.	.
8G\J	.	8g\J	.	16g/	.	16gg\	.	.	.	.	.	.	.	.	.
.	.	.	.	16g/JJ	.	16gg\JJ	.	.	.	.	.	.	.	.	.
*tremolo	*	*tremolo	*	*	*	*tremolo	*	*	*	*	*	*	*	*	*
8A\L	.	8a\L	.	16f/LL	.	16ff\LL	.	2r	.	2r	.	4a/	.	4ffn\	.
.	.	.	.	16f/	.	16ff\	.	.	.	.	.	.	.	.	.
8A\	.	8a\	.	16f/	.	16ff\	.	.	.	.	.	.	.	.	.
.	.	.	.	16f/JJ	.	16ff\JJ	.	.	.	.	.	.	.	.	.
8A\	.	8a\	.	16c#X/LL	.	16cc#X\LL	.	.	.	.	.	4cc#X\	.	4cc#X\	.
.	.	.	.	16c#X/	.	16cc#X\	.	.	.	.	.	.	.	.	.
8A\J	.	8a\J	.	16c#X/	.	16cc#X\	.	.	.	.	.	.	.	.	.
.	.	.	.	16c#X/JJ	.	16cc#X\JJ	.	.	.	.	.	.	.	.	.
!	!	!	!	!LO:LB:g=original	!	!	!	!	!	!	!	!	!	!	!
=45	=45	=45	=45	=45	=45	=45	=45	=45	=45	=45	=45	=45	=45	=45	=45
!	!	!	!	!	!	!	!	!	!	!LO:TX:a:t=1	!	!	!	!	!
*Xtremolo	*	*Xtremolo	*	*	*	*	*	*	*	*	*	*	*	*	*
8B-\L	.	8b-\L	.	16d/LL	.	16dd\LL	.	1r	.	1r	.	4dd\	.	4dd\	.
.	.	.	.	16d/	.	16dd\	.	.	.	.	.	.	.	.	.
8B-\	.	8b-\	.	16d/	.	16dd\	.	.	.	.	.	.	.	.	.
.	.	.	.	16d/JJ	.	16dd\JJ	.	.	.	.	.	.	.	.	.
8A\	.	8a\	.	16f#X/LL	.	16ff#X\LL	.	.	.	.	.	4ccn\	.	4ff#X\	.
.	.	.	.	16f#X/	.	16ff#X\	.	.	.	.	.	.	.	.	.
8A\J	.	8a\J	.	16f#X/	.	16ff#X\	.	.	.	.	.	.	.	.	.
!	!	!LO:LB:g=original	!	!	!	!	!	!	!	!	!	!	!	!	!
.	.	.	.	16f#X/JJ	.	16ff#X\JJ	.	.	.	.	.	.	.	.	.
8B-\L	.	8b-\L	.	16g/LL	.	16gg\LL	.	.	.	.	.	4b-\	.	4gg\	.
.	.	.	.	16g/	.	16gg\	.	.	.	.	.	.	.	.	.
8B-\	.	8b-\	.	16g/	.	16gg\	.	.	.	.	.	.	.	.	.
.	.	.	.	16g/JJ	.	16gg\JJ	.	.	.	.	.	.	.	.	.
8d\	.	8dd\	.	16b-X/LL	.	16bb-\LL	.	.	.	.	.	4gg\	.	4bb-\	.
.	.	.	.	16b-X/	.	16bb-\	.	.	.	.	.	.	.	.	.
8d\J	.	8dd\J	.	16b-X/	.	16bb-\	.	.	.	.	.	.	.	.	.
.	.	.	.	16b-X/JJ	.	16bb-\JJ	.	.	.	.	.	.	.	.	.
=46	=46	=46	=46	=46	=46	=46	=46	=46	=46	=46	=46	=46	=46	=46	=46
*tremolo	*	*tremolo	*	*	*	*	*	*	*	*	*	*	*	*	*
8c\L	.	8cc\L	.	16a/LL	.	16aa\LL	.	1c	.	1cc	.	2ff\	.	2aa\	.
.	.	.	.	16ff/	.	16aa\	.	.	.	.	.	.	.	.	.
8c\	.	8cc\	.	16ff/	.	16aa\	.	.	.	.	.	.	.	.	.
.	.	.	.	16ff/JJ	.	16aa\	.	.	.	.	.	.	.	.	.
8c\	.	8cc\	.	16ff\LL	.	16aa\	.	.	.	.	.	.	.	.	.
.	.	.	.	16ff\	.	16aa\	.	.	.	.	.	.	.	.	.
8c\J	.	8cc\J	.	16ff\	.	16aa\	.	.	.	.	.	.	.	.	.
.	.	.	.	16ff\JJ	.	16aa\JJ	.	.	.	.	.	.	.	.	.
8C/L	.	8c\L	.	16een\LL	.	16gg\LL	.	.	.	.	.	2cc\	.	2gg\	.
.	.	.	.	16een\	.	16gg\	.	.	.	.	.	.	.	.	.
8C/	.	8c\	.	16een\	.	16gg\	.	.	.	.	.	.	.	.	.
.	.	.	.	16een\	.	16gg\	.	.	.	.	.	.	.	.	.
8C/	.	8c\	.	16een\	.	16gg\	.	.	.	.	.	.	.	.	.
.	.	.	.	16een\	.	16gg\	.	.	.	.	.	.	.	.	.
8C/J	.	8c\J	.	16een\	.	16gg\	.	.	.	.	.	.	.	.	.
.	.	.	.	16een\JJ	.	16gg\JJ	.	.	.	.	.	.	.	.	.
=47	=47	=47	=47	=47	=47	=47	=47	=47	=47	=47	=47	=47	=47	=47	=47
*Xtremolo	*	*Xtremolo	*	*	*	*	*	*	*	*	*	*	*	*	*
8F\L	p	8f\L	p	4ff\	.	4ffn\	.	4c/	.	4cc\	.	4a/	.	4ff\	.
8F\	.	8f\	.	.	.	.	.	.	.	.	.	.	.	.	.
8F\	.	8f\	.	4r	.	4r	.	4r	.	4r	.	4r	.	4r	.
8F\J	.	8f\J	.	.	.	.	.	.	.	.	.	.	.	.	.
*tremolo	*	*tremolo	*	*	*	*	*	*	*	*	*	*	*	*	*
8F\L	.	8f\L	.	4r	.	4r	p	2r	.	2r	.	2r	.	2r	.
!	!	!	!	!	!	!	!	!	!	!	!	!	!	!LO:LB:g=original	!
8F\	.	8f\	.	.	.	.	.	.	.	.	.	.	.	.	.
8F\	.	8f\	.	[4b-\	p	(4dd\	.	.	.	.	.	.	.	.	.
8F\J	.	8f\J	.	.	.	.	.	.	.	.	.	.	.	.	.
=48	=48	=48	=48	=48	=48	=48	=48	=48	=48	=48	=48	=48	=48	=48	=48
!LO:LB:g=original	!	!	!	!	!	!	!	!LO:TX:a:t=4	!	!	!	!LO:TX:a:t=1	!	!LO:TX:a:t=1	!
8F\L	.	8f\L	.	4b-\]	.	4dd\	.	1r	.	1r	.	1r	.	1r	.
8F\	.	8f\	.	.	.	.	.	.	.	.	.	.	.	.	.
8F\	.	8f\	.	4a\	.	4cc\)	.	.	.	.	.	.	.	.	.
8F\J	.	8f\J	.	.	.	.	.	.	.	.	.	.	.	.	.
8F\L	.	8f\L	.	4r	.	4r	.	.	.	.	.	.	.	.	.
8F\	.	8f\	.	.	.	.	.	.	.	.	.	.	.	.	.
8F\	.	8f\	.	4g/	.	4b-\	.	.	.	.	.	.	.	.	.
8F\J	.	8f\J	.	.	.	.	.	.	.	.	.	.	.	.	.
=49	=49	=49	=49	=49	=49	=49	=49	=49	=49	=49	=49	=49	=49	=49	=49
8F\L	.	8f\L	.	(4g/	.	(4b-\	.	1r	.	1r	.	2r	.	2r	.
8F\	.	8f\	.	.	.	.	.	.	.	.	.	.	.	.	.
8F\	.	8f\	.	4f/)	.	4a\)	.	.	.	.	.	.	.	.	.
8F\J	.	8f\J	.	.	.	.	.	.	.	.	.	.	.	.	.
*Xtremolo	*	*Xtremolo	*	*	*	*	*	*	*	*	*	*	*	*	*
8F\L	.	8f\L	.	4r	.	4r	.	.	.	.	.	4r	.	4r	.
8F\	.	8f\	.	.	.	.	.	.	.	.	.	.	.	.	.
8B-\	.	8B-\	.	4d/	pp	(4g/	.	.	.	.	.	4dd\	p	4gg\	.
!	!	!	!	!	!	!	!	!	!	!	!	!LO:LB:g=original	!	!	!
8B-\J	.	8B-\J	.	.	.	.	.	.	.	.	.	.	.	.	.
=50	=50	=50	=50	=50	=50	=50	=50	=50	=50	=50	=50	=50	=50	=50	=50
8A\L	.	8A/L	.	(4c/	.	4f/	.	1r	.	1r	.	4cc\	.	4ff\|	.
8A\	.	8A/	.	.	.	.	.	.	.	.	.	.	.	.	.
8B-\	.	8B-/	.	4d/	.	4g/	.	.	.	.	.	4dd\	.	(4gg\	.
8B-\J	.	8B-/J	.	.	.	.	.	.	.	.	.	.	.	.	.
!LO:TX:t=P:problem:mixed beam	!	!	!	!	!	!	!	!	!	!	!	!	!	!	!
8c\L	.	8c/L	.	4c/	.	4f/	.	.	.	.	.	(4cc\	.	4ff\	.
8c\	.	8c/	.	.	.	.	.	.	.	.	.	.	.	.	.
8C/	.	8C/	.	4B-/)	.	4en/)	.	.	.	.	.	4b-X\)	.	4een\)	.
!	!	!	!	!LO:LB:g=original	!	!LO:LB:g=original	!	!	!	!	!	!	!	!	!
8C/J	.	8C/J	.	.	.	.	.	.	.	.	.	.	.	.	.
=51	=51	=51	=51	=51	=51	=51	=51	=51	=51	=51	=51	=51	=51	=51	=51
!LO:TX:t=P:problem:mixed beam	!	!LO:TX:t=P:problem:mixed beam	!	!	!	!	!	!	!	!	!	!	!	!LO:SIC:s=2een	!
8FF\L	.	8F/L	.	2B-/	.	2e-/	.	1r	.	1r	.	2b-\	.	2ee-\	.
8F/	.	8f\	.	.	.	.	.	.	.	.	.	.	.	.	.
8C/	.	8c\	.	.	.	.	.	.	.	.	.	.	.	.	.
8AA/J	.	8A\J	.	.	.	.	.	.	.	.	.	.	.	.	.
4FF/	.	4F/	.	4A/	.	4f/	.	.	.	.	.	4a/	.	4ff\	.
4r	.	4r	.	4r	.	4r	.	.	.	.	.	4r	.	4r	.
=52:|!|:	=52:|!|:	=52:|!|:	=52:|!|:	=52:|!|:	=52:|!|:	=52:|!|:	=52:|!|:	=52:|!|:	=52:|!|:	=52:|!|:	=52:|!|:	=52:|!|:	=52:|!|:	=52:|!|:	=52:|!|:
!	!	!LO:LB:g=original	!	!	!	!	!	!LO:TX:a:t=30	!	!LO:TX:a:t=21	!	!LO:TX:a:t=21	!	!LO:TX:a:t=12	!
*	*	*tremolo	*	*	*	*	*	*	*	*	*	*	*	*	*
8F\L	p	8f\L	p	8r	pp	8r	p	1r	.	1r	.	1r	.	1r	.
*	*	*	*	*Xtremolo	*	*Xtremolo	*	*	*	*	*	*	*	*	*
8F\	.	8f\	.	8a/L	.	(8cc'\L	.	.	.	.	.	.	.	.	.
8F\	.	8f\	.	8a/	.	8cc'\	.	.	.	.	.	.	.	.	.
8F\J	.	8f\J	.	8a/J	.	8cc'\J)	.	.	.	.	.	.	.	.	.
*tremolo	*	*	*	*	*	*	*	*	*	*	*	*	*	*	*
8F\L	.	8f\L	.	8r	.	8r	.	.	.	.	.	.	.	.	.
8F\	.	8f\	.	8a/L	.	(8cc'\L	.	.	.	.	.	.	.	.	.
8F\	.	8f\	.	8a/	.	8cc'\	.	.	.	.	.	.	.	.	.
8F\J	.	8f\J	.	8a/J	.	8cc'\J)	.	.	.	.	.	.	.	.	.
=53	=53	=53	=53	=53	=53	=53	=53	=53	=53	=53	=53	=53	=53	=53	=53
8G\L	.	8g\L	.	8r	.	8r	.	1r	.	1r	.	1r	.	1r	.
!	!	!	!	!LO:SIC:s=2en	!	!	!	!	!	!	!	!	!	!	!
8G\	.	8g\	.	8e-/L	.	(8cc'\L	.	.	.	.	.	.	.	.	.
!	!	!	!	!LO:SIC:s=2en	!	!	!	!	!	!	!	!	!	!	!
8G\	.	8g\	.	8e-/	.	8cc'\	.	.	.	.	.	.	.	.	.
!	!	!	!	!LO:SIC:s=2en	!	!	!	!	!	!	!	!	!	!	!
8G\J	.	8g\J	.	8e-/J	.	8cc'\J)	.	.	.	.	.	.	.	.	.
(8G\L	.	(8g\L	.	8r	.	8r	.	.	.	.	.	.	.	.	.
!	!	!	!	!LO:SIC:s=2en	!	!	!	!	!	!	!	!	!	!	!
8F\	.	8f\)	.	8e-/L	.	(8cc'\L	.	.	.	.	.	.	.	.	.
!LO:TX:t=P:problem:kasownik nad nutą	!	!LO:SIC:s=2en	!	!	!	!	!	!	!	!	!	!	!	!	!
8En\	.	8e-\	.	8g/	.	8cc'\	.	.	.	.	.	.	.	.	.
8D\J)	.	8d\J	.	8f/J	.	8cc'\J)	.	.	.	.	.	.	.	.	.
!LO:LB:g=original	!	!	!	!	!	!	!	!	!	!	!	!	!	!	!
=54	=54	=54	=54	=54	=54	=54	=54	=54	=54	=54	=54	=54	=54	=54	=54
*Xtremolo	*	*	*	*	*	*	*	*	*	*	*	*	*	*	*
8C/L	.	8c\L	.	8r	.	8r	.	1r	.	1r	.	1r	.	1r	.
8C/	.	8c\	.	8g/L	.	(8cc'\L	.	.	.	.	.	.	.	.	.
8C/	.	8c\	.	8g/	.	8cc'\	.	.	.	.	.	.	.	.	.
8C/J	.	8c\J	.	8g/J	.	8cc'\J)	.	.	.	.	.	.	.	.	.
*tremolo	*	*	*	*	*	*	*	*	*	*	*	*	*	*	*
8E-\L	.	8e-\L	.	8r	.	8r	.	.	.	.	.	.	.	.	.
8E-\	.	8e-\	.	8g'/L	.	(8cc'\L	.	.	.	.	.	.	.	.	.
8E-\	.	8e-\	.	8g'/	.	8cc'\	.	.	.	.	.	.	.	.	.
8E-\J	.	8e-\J	.	8g/J	.	8cc'\J)	.	.	.	.	.	.	.	.	.
=55	=55	=55	=55	=55	=55	=55	=55	=55	=55	=55	=55	=55	=55	=55	=55
(8F\L	.	4f\	.	8r	.	8r	.	1r	.	1r	.	1r	.	1r	.
8G\	.	.	.	(8e-/L	.	8cc\L	.	.	.	.	.	.	.	.	.
8A\	.	4r	.	8f/)	.	8cc\	.	.	.	.	.	.	.	.	.
8c\J)	.	.	.	8g/J	.	8cc\J	.	.	.	.	.	.	.	.	.
(8A\L	.	4r	.	(8f/L	.	(8cc\L	.	.	.	.	.	.	.	.	.
8G\	.	.	.	8g/)	.	8b-\	.	.	.	.	.	.	.	.	.
8A\)	.	4f\	.	8a'/	.	8cc\	.	.	.	.	.	.	.	.	.
8F\|J	.	.	.	8f'/J	.	8a\J)	.	.	.	.	.	.	.	.	.
!	!	!	!	!LO:LB:g=original	!	!	!	!	!	!	!	!	!	!	!
=56	=56	=56	=56	=56	=56	=56	=56	=56	=56	=56	=56	=56	=56	=56	=56
8B-\L	.	4b-\	.	8r	.	8r	.	1r	.	1r	.	1r	.	1r	.
8B-\	.	.	.	8f/L	.	(8dd'\L	.	.	.	.	.	.	.	.	.
8B-\	.	4r	.	8f/	.	8dd'\	.	.	.	.	.	.	.	.	.
8B-\J	.	.	.	8f/J	.	8dd'\J)	.	.	.	.	.	.	.	.	.
8B-\L	.	4B-/	.	8r	.	8r	.	.	.	.	.	.	.	.	.
8B-\	.	.	.	8f/L	.	(8dd'\L	.	.	.	.	.	.	.	.	.
8B-\	.	4r	.	8f/	.	8dd'\	.	.	.	.	.	.	.	.	.
8B-\J	.	.	.	8f/J	.	8dd'\J)	.	.	.	.	.	.	.	.	.
=57	=57	=57	=57	=57	=57	=57	=57	=57	=57	=57	=57	=57	=57	=57	=57
8A\L	.	4f\	.	8r	.	8r	.	1r	.	1r	.	1r	.	1r	.
8A\	.	.	.	8f/L	.	(8cc'\L	.	.	.	.	.	.	.	.	.
8A\	.	4r	.	8f/	.	8cc'\	.	.	.	.	.	.	.	.	.
8A\J	.	.	.	8f/J	.	8cc'\J)	.	.	.	.	.	.	.	.	.
4F\	.	4f\	.	8r	.	8r	.	.	.	.	.	.	.	.	.
.	.	.	.	8f/L	.	8dd\|L	.	.	.	.	.	.	.	.	.
4r	.	4r	.	8f/	.	(8cc\	.	.	.	.	.	.	.	.	.
.	.	.	.	8f/J	.	8a\J)	.	.	.	.	.	.	.	.	.
=58	=58	=58	=58	=58	=58	=58	=58	=58	=58	=58	=58	=58	=58	=58	=58
!	!	!	!	!	!	!LO:TX:t=P:problem:2 takty zapisane powtórką	!	!	!	!	!	!	!	!	!
4BB-/	.	4B-/	.	8r	.	8r	.	1r	.	1r	.	1r	.	1r	.
.	.	.	.	8f/L	.	(8dd'\L	.	.	.	.	.	.	.	.	.
4r	.	4r	.	8f/	.	8dd'\	.	.	.	.	.	.	.	.	.
.	.	.	.	8f/J	.	8dd'\J)	.	.	.	.	.	.	.	.	.
4B-\	.	4b-\	.	8r	.	8r	.	.	.	.	.	.	.	.	.
.	.	.	.	8f/L	.	(8dd'\L	.	.	.	.	.	.	.	.	.
4r	.	4r	.	8f/	.	8dd'\	.	.	.	.	.	.	.	.	.
.	.	.	.	8f/J	.	8dd'\J)	.	.	.	.	.	.	.	.	.
!	!	!LO:LB:g=original	!	!	!	!LO:LB:g=original	!	!	!	!	!	!	!	!	!
=59	=59	=59	=59	=59	=59	=59	=59	=59	=59	=59	=59	=59	=59	=59	=59
4A\	.	4f\	.	8r	.	8r	.	1r	.	1r	.	1r	.	1r	.
.	.	.	.	8f/L	.	(8cc'\L	.	.	.	.	.	.	.	.	.
4r	.	4r	.	8f/	.	8cc'\	.	.	.	.	.	.	.	.	.
.	.	.	.	8f/J	.	8cc'\J)	.	.	.	.	.	.	.	.	.
4F\	.	4f\	.	8r	.	8r	.	.	.	.	.	.	.	.	.
.	.	.	.	8f/L	.	8dd\|L	.	.	.	.	.	.	.	.	.
4r	.	4r	.	8a/	.	(8cc\	.	.	.	.	.	.	.	.	.
.	.	.	.	8f/J	.	8a\J)	.	.	.	.	.	.	.	.	.
=60	=60	=60	=60	=60	=60	=60	=60	=60	=60	=60	=60	=60	=60	=60	=60
!LO:SIC:s=4en	!	!LO:SIC:s=4en	!	!	!	!	!	!	!	!	!	!	!	!	!
(4E-\	.	(4e-\	.	(4g/	.	(4b-/	.	1r	.	1r	.	1r	.	1r	.
4F\	.	4f\	.	4f/	.	4a/	.	.	.	.	.	.	.	.	.
!	!	!	!	!LO:SIC:s=4en	!	!	!	!	!	!	!	!	!	!	!
4B-\	.	4b-\)	.	4e-/	.	4g/	.	.	.	.	.	.	.	.	.
4A\)	.	4a\	.	4f/)	.	4f/)	.	.	.	.	.	.	.	.	.
!LO:LB:g=original	!	!	!	!LO:LB:g=original	!	!	!	!	!	!	!	!	!	!	!
=61	=61	=61	=61	=61	=61	=61	=61	=61	=61	=61	=61	=61	=61	=61	=61
2F\	.	2f\	.	(4d/	.	8.b-\L	.	1r	.	1r	.	1r	.	1r	.
.	.	.	.	.	.	16cc\Jk	.	.	.	.	.	.	.	.	.
.	.	.	.	4c/	.	4a/	.	.	.	.	.	.	.	.	.
4C/	.	4c\	.	4B-/)	.	8.g/L	.	.	.	.	.	.	.	.	.
.	.	.	.	.	.	16a/Jk	.	.	.	.	.	.	.	.	.
4F\	.	4f\	.	4A/	.	4f/	.	.	.	.	.	.	.	.	.
=62	=62	=62	=62	=62	=62	=62	=62	=62	=62	=62	=62	=62	=62	=62	=62
4BB-/	.	4b-\	.	2d/	.	(8een\L	.	1r	.	1r	.	1r	.	1r	.
.	.	.	.	.	.	8dd\	.	.	.	.	.	.	.	.	.
4B-\	.	4b-\	.	.	.	8cc\	.	.	.	.	.	.	.	.	.
.	.	.	.	.	.	8b-\J)	.	.	.	.	.	.	.	.	.
4c\	.	4cc\	.	4f/	.	8a/L	.	.	.	.	.	.	.	.	.
.	.	.	.	.	.	8f/J	.	.	.	.	.	.	.	.	.
.	.	.	.	.	.	16qqa/	.	.	.	.	.	.	.	.	.
4C/	.	4c/	.	4c/	.	8g/L	.	.	.	.	.	.	.	.	.
.	.	.	.	.	.	16f/L	.	.	.	.	.	.	.	.	.
!	!	!	!	!	!	!LO:SIC:s=16en	!	!	!	!	!	!	!	!	!
.	.	.	.	.	.	16e-/JJ	.	.	.	.	.	.	.	.	.
=63	=63	=63	=63	=63	=63	=63	=63	=63	=63	=63	=63	=63	=63	=63	=63
!	!	!	!	!LO:HP:t=cres	!	!	!	!	!	!	!	!	!	!	!
4F\	.	4f\	.	8f/|L	<	8f/|<L	.	1r	.	1r	.	1r	.	1r	.
!	!	!	!	!LO:SIC:s=8en	!	!	!	!	!	!	!	!	!	!	!
.	.	.	.	8e-/|	.	8g/|<	.	.	.	.	.	.	.	.	.
4r	.	4r	.	8f/|	.	8a/|<	.	.	.	.	.	.	.	.	.
.	.	.	.	8g/J|	.	8b-/|<J	.	.	.	.	.	.	.	.	.
2r	.	2r	.	8f/L|	.	8a/|<L	.	.	.	.	.	.	.	.	.
.	.	.	.	8g/|	.	8b-/|<	.	.	.	.	.	.	.	.	.
.	.	.	.	8a/|	.	8cc/|<	.	.	.	.	.	.	.	.	.
.	.	.	.	8b-/J|	[[	8dd/|<J	.	.	.	.	.	.	.	.	.
=64	=64	=64	=64	=64	=64	=64	=64	=64	=64	=64	=64	=64	=64	=64	=64
!	!	!	!	!	!	!	!	!	!	!	!	!	!	!LO:TX:a:t=Solo	!
4F\	.	4f\	.	8r	.	8r	.	1r	.	1r	.	1r	.	4.ee-X\	.
.	.	.	.	8cc\|L	.	(8ee-'\L	.	.	.	.	.	.	.	.	.
4r	.	4r	.	8cc\|	.	8ee-'\	.	.	.	.	.	.	.	.	.
.	.	.	.	8cc\|J	.	8ee-'\J)	.	.	.	.	.	.	.	8cc\	.
4F\	.	4f\	.	8r	.	8r	.	.	.	.	.	.	.	(4b-\	.
.	.	.	.	8cc\L	.	(8ee-'\L	.	.	.	.	.	.	.	.	.
4r	.	4r	.	8cc\	.	8ee-'\	.	.	.	.	.	.	.	4an\	.
.	.	.	.	8cc\J	.	8ee-'\J)	.	.	.	.	.	.	.	.	.
!	!	!	!	!	!	!LO:LB:g=original	!	!	!	!	!	!	!	!	!
=65	=65	=65	=65	=65	=65	=65	=65	=65	=65	=65	=65	=65	=65	=65	=65
!	!	!	!	!	!	!	!	!	!	!	!	!	!	!LO:TX:a:t=	!
4B-\	.	4b-\	.	8r	.	8r	.	1r	.	1r	.	1r	.	8b-\L)	.
.	.	.	.	(8b-\L	.	(8dd\L	.	.	.	.	.	.	.	(16gg\L	.
.	.	.	.	.	.	.	.	.	.	.	.	.	.	16ffn\JJ)	.
4r	.	4r	.	8dd\	.	8ff\	.	.	.	.	.	.	.	4ff\	.
.	.	.	.	8b-\J)	.	8dd\J)	.	.	.	.	.	.	.	.	.
4BB-/	.	4B-/	.	8r	.	8r	.	.	.	.	.	.	.	4r	.
.	.	.	.	8b-\L	.	(8dd\L	.	.	.	.	.	.	.	.	.
4r	.	4r	.	8dd\	.	8ff\	.	.	.	.	.	.	.	4ff\	.
!	!	!LO:LB:g=original	!	!	!	!	!	!	!	!	!	!	!	!	!
.	.	.	.	8b-\J	.	8dd\J)	.	.	.	.	.	.	.	.	.
=66	=66	=66	=66	=66	=66	=66	=66	=66	=66	=66	=66	=66	=66	=66	=66
4F\	.	4c\	.	8r	.	8r	.	1r	.	1r	.	1r	.	4.ee-X\	.
.	.	.	.	(8a/L	.	(8cc\L	.	.	.	.	.	.	.	.	.
4r	.	4r	.	8cc/	.	8ee-\	.	.	.	.	.	.	.	.	.
.	.	.	.	8a/J)	.	8cc\J)	.	.	.	.	.	.	.	8cc\	.
4F\	.	4c\	.	8r	.	8r	.	.	.	.	.	.	.	(4b-\	.
.	.	.	.	(8a/L	.	(8cc\L	.	.	.	.	.	.	.	.	.
4r	.	4r	.	8cc/	.	8ee-\	.	.	.	.	.	.	.	4a/)	.
!	!	!	!	!	!	!	!	!	!	!	!	!	!	!LO:LB:g=original	!
.	.	.	.	8a/J)	.	8cc\J)	.	.	.	.	.	.	.	.	.
!	!	!	!	!LO:LB:g=original	!	!	!	!	!	!	!	!	!	!	!
=67	=67	=67	=67	=67	=67	=67	=67	=67	=67	=67	=67	=67	=67	=67	=67
4BB-/	.	4d\	.	4b-\	.	4dd\	.	1r	.	1r	.	1r	.	8b-\L	.
.	.	.	.	.	.	.	.	.	.	.	.	.	.	16cc\L	.
.	.	.	.	.	.	.	.	.	.	.	.	.	.	16dd\JJ	.
4r	.	4r	.	4r	.	4r	.	.	.	.	.	.	.	16ee-X\LL	.
.	.	.	.	.	.	.	.	.	.	.	.	.	.	16ff\	.
.	.	.	.	.	.	.	.	.	.	.	.	.	.	16gg\	.
.	.	.	.	.	.	.	.	.	.	.	.	.	.	16aa\JJ	.
2r	.	2r	.	2r	.	2r	.	.	.	.	.	.	.	16bb-\LL	.
.	.	.	.	.	.	.	.	.	.	.	.	.	.	16aa\	.
.	.	.	.	.	.	.	.	.	.	.	.	.	.	16gg\	.
.	.	.	.	.	.	.	.	.	.	.	.	.	.	16ff\JJ	.
.	.	.	.	.	.	.	.	.	.	.	.	.	.	16ee-\LL	.
.	.	.	.	.	.	.	.	.	.	.	.	.	.	16dd\	.
.	.	.	.	.	.	.	.	.	.	.	.	.	.	16cc\	.
.	.	.	.	.	.	.	.	.	.	.	.	.	.	16b-\JJ	.
=68	=68	=68	=68	=68	=68	=68	=68	=68	=68	=68	=68	=68	=68	=68	=68
8D\L	.	8d\L	.	8r	.	8r	.	1r	.	1r	.	1r	.	2a-X/	.
8D\	.	8d\	.	8f/L	.	8b-\L	.	.	.	.	.	.	.	.	.
8D\	.	8d\	.	8f/	.	8b-\	.	.	.	.	.	.	.	.	.
8D\J	.	8d\J	.	8f/J	.	8b-\J	.	.	.	.	.	.	.	.	.
*	*	*	*	*	*	*tremolo	*	*	*	*	*	*	*	*	*
8D\L	.	8d\L	.	8f/L	.	8b-\L	.	.	.	.	.	.	.	2aa-X\	.
8D\	.	8d\	.	8f/	.	8b-\	.	.	.	.	.	.	.	.	.
8D\	.	8d\	.	8f/	.	8b-\	.	.	.	.	.	.	.	.	.
8D\J	.	8d\J	.	8f/J	.	8b-\J	.	.	.	.	.	.	.	.	.
!LO:LB:g=original	!	!	!	!	!	!	!	!	!	!	!	!	!	!	!
=69	=69	=69	=69	=69	=69	=69	=69	=69	=69	=69	=69	=69	=69	=69	=69
4E-X\	.	4e-X\	.	4g/	.	4b-\	.	1r	.	1r	.	1r	.	(8gg\L	.
.	.	.	.	.	.	.	.	.	.	.	.	.	.	8ff#X\	.
4r	.	4r	.	4r	.	4r	.	.	.	.	.	.	.	8gg\)	.
.	.	.	.	.	.	.	.	.	.	.	.	.	.	8ff#\J	.
2r	.	2r	.	2r	.	2r	.	.	.	.	.	.	.	16gg\LL	.
.	.	.	.	.	.	.	.	.	.	.	.	.	.	16aa\	.
.	.	.	.	.	.	.	.	.	.	.	.	.	.	16bb-\	.
.	.	.	.	.	.	.	.	.	.	.	.	.	.	16aa\JJ	.
.	.	.	.	.	.	.	.	.	.	.	.	.	.	16bb-\LL	.
.	.	.	.	.	.	.	.	.	.	.	.	.	.	16gg\	.
!	!	!	!	!	!	!	!	!	!	!	!	!	!	!LO:SIC:s=16ffn	!
.	.	.	.	.	.	.	.	.	.	.	.	.	.	16ff#\	.
.	.	.	.	.	.	.	.	.	.	.	.	.	.	16ee-X\JJ	.
=70	=70	=70	=70	=70	=70	=70	=70	=70	=70	=70	=70	=70	=70	=70	=70
(4D\	.	(4d\	.	(4dd\	.	(4ff\	.	1r	.	1r	.	1r	.	8.ff\L	.
.	.	.	.	.	.	.	.	.	.	.	.	.	.	16gg\Jk	.
4E-\	.	4e-\	.	4cc\	.	4ee-X\	.	.	.	.	.	.	.	4ee-\	.
4F\)	.	4f\)	.	4b-\)	.	4dd\	.	.	.	.	.	.	.	8.dd\L	.
.	.	.	.	.	.	.	.	.	.	.	.	.	.	16ee-\Jk	.
4FF/|	.	4F/	.	4a\|	.	4cc\)	.	.	.	.	.	.	.	4cc\	.
=71	=71	=71	=71	=71	=71	=71	=71	=71	=71	=71	=71	=71	=71	=71	=71
4BB-/	.	4B-/	.	4b-\	.	4dd\	.	1r	.	1r	.	1r	.	(8dd\L	.
.	.	.	.	.	.	.	.	.	.	.	.	.	.	8bb-\	.
4r	.	4r	.	4r	.	4r	.	.	.	.	.	.	.	(8aan\	.
.	.	.	.	.	.	.	.	.	.	.	.	.	.	8aa-X\J)	.
2r	.	2r	.	2r	.	2r	.	.	.	.	.	.	.	8gg\L	.
!	!	!	!	!	!	!LO:LB:g=original	!	!	!	!	!	!	!	!	!
.	.	.	.	.	.	.	.	.	.	.	.	.	.	8ff#X\	.
!	!	!	!	!	!	!	!	!	!	!	!	!	!	!LO:TX:t=P:problem:kasownik nad nutą	!
.	.	.	.	.	.	.	.	.	.	.	.	.	.	8ffn\	.
!	!	!	!	!	!	!	!	!	!	!	!	!	!	!LO:TX:t=P:problem:kasownik nad nutą	!
.	.	.	.	.	.	.	.	.	.	.	.	.	.	8een\J)	.
!	!	!	!	!	!	!	!	!	!	!	!	!	!	!LO:LB:g=original	!
=72	=72	=72	=72	=72	=72	=72	=72	=72	=72	=72	=72	=72	=72	=72	=72
(4D\	.	4d\	.	(4dd\	.	(4ff\	.	1r	.	1r	.	1r	.	8.ff\L	.
.	.	.	.	.	.	.	.	.	.	.	.	.	.	16gg\Jk	.
4E-X\	.	4e-\	.	4cc\	.	4ee-\	.	.	.	.	.	.	.	4ee-X\	.
4F\)	.	4f\	.	4b-\	.	4dd\	.	.	.	.	.	.	.	8.dd\L	.
.	.	.	.	.	.	.	.	.	.	.	.	.	.	16ee-\Jk	.
!LO:TX:a:t=	!	!	!	!LO:TX:t=P:problem:kasownik nad nutą	!	!	!	!	!	!	!	!	!	!	!
4FF/	.	4F/	.	4an\)	.	4cc\)	.	.	.	.	.	.	.	4cc\	.
=73	=73	=73	=73	=73	=73	=73	=73	=73	=73	=73	=73	=73	=73	=73	=73
1ryy	.	1ryy	.	1ryy	.	1ryy	.	1r	.	1ryy	.	1ryy	.	1ryy	.
=74	=74	=74	=74	=74	=74	=74	=74	=74	=74	=74	=74	=74	=74	=74	=74
1ryy	.	1ryy	.	1ryy	.	1ryy	.	1r	.	1ryy	.	1ryy	.	1ryy	.
=75	=75	=75	=75	=75	=75	=75	=75	=75	=75	=75	=75	=75	=75	=75	=75
1ryy	.	1ryy	.	1ryy	.	1ryy	.	1r	.	1ryy	.	1ryy	.	1ryy	.
=76	=76	=76	=76	=76	=76	=76	=76	=76	=76	=76	=76	=76	=76	=76	=76
1ryy	.	1ryy	.	1ryy	.	1ryy	.	1r	.	1ryy	.	1ryy	.	1ryy	.
=77	=77	=77	=77	=77	=77	=77	=77	=77	=77	=77	=77	=77	=77	=77	=77
1ryy	.	1ryy	.	1ryy	.	1ryy	.	1r	.	1ryy	.	1ryy	.	1ryy	.
=78	=78	=78	=78	=78	=78	=78	=78	=78	=78	=78	=78	=78	=78	=78	=78
1ryy	.	1ryy	.	1ryy	.	1ryy	.	1r	.	1ryy	.	1ryy	.	1ryy	.
=79	=79	=79	=79	=79	=79	=79	=79	=79	=79	=79	=79	=79	=79	=79	=79
1ryy	.	1ryy	.	1ryy	.	1ryy	.	1r	.	1ryy	.	1ryy	.	1ryy	.
=80	=80	=80	=80	=80	=80	=80	=80	=80	=80	=80	=80	=80	=80	=80	=80
1ryy	.	1ryy	.	1ryy	.	1ryy	.	1r	.	1ryy	.	1ryy	.	1ryy	.
=81	=81	=81	=81	=81	=81	=81	=81	=81	=81	=81	=81	=81	=81	=81	=81
1ryy	.	1ryy	.	1ryy	.	1ryy	.	1r	.	1ryy	.	1ryy	.	1ryy	.
!	!	!LO:LB:g=original	!	!	!	!	!LO:LB:g=original	!	!	!	!	!	!	!	!
=82	=82	=82	=82	=82	=82	=82	=82	=82	=82	=82	=82	=82	=82	=82	=82
!LO:TX:t=P:problem:mixed beam	!	!	!	!	!	!	!	!	!	!	!	!	!	!	!
!	!LO:DY:b:t=for	!	!LO:DY:b:t=for	!	!LO:DY:b:t=for	!	!LO:DY:b:t=for	!	!LO:DY:b:t=for	!	!	!	!LO:DY:b:t=for	!	!LO:DY:b:t=for
8BB-/L	f	8B-/L	f	2B-/ 2f	f	2d/ 2b-	f	[1B-	f	[1b-	.	2d/	f	2b-\	f
8B-\	.	8B-/	.	.	.	.	.	.	.	.	.	.	.	.	.
8B-\	.	8B-/	.	.	.	.	.	.	.	.	.	.	.	.	.
8B-\J	.	8B-/J	.	.	.	.	.	.	.	.	.	.	.	.	.
8B-\L	.	8B-/L	.	2d/ 2b-	.	2f/ 2dd	.	.	.	.	.	2b-\	.	2dd\	.
8B-\	.	8B-/	.	.	.	.	.	.	.	.	.	.	.	.	.
8B-\	.	8B-/	.	.	.	.	.	.	.	.	.	.	.	.	.
8B-\J	.	8B-/J	.	.	.	.	.	.	.	.	.	.	.	.	.
=83	=83	=83	=83	=83	=83	=83	=83	=83	=83	=83	=83	=83	=83	=83	=83
*	*	*	*	*	*	*^	*	*	*	*	*	*	*	*	*
8B-\L	.	8B-/L	.	2f/ 2dd	.	2ff/	2b-\	.	2B-/]	.	2b-\]	.	[2dd\	.	(2ff\	.
!	!	!	!	!LO:LB:g=original	!	!	!	!	!	!	!	!	!	!	!	!
8B-\	.	8B-/	.	.	.	.	.	.	.	.	.	.	.	.	.	.
8B-\	.	8B-/	.	.	.	.	.	.	.	.	.	.	.	.	.	.
8B-\J	.	8B-/J	.	.	.	.	.	.	.	.	.	.	.	.	.	.
8B-\L	.	8B-/L	.	16bb-\LL	.	16bb-\LL	2ryy	.	4B-/	.	4b-\	.	4dd\]	.	4bb-\)	.
.	.	.	.	16aa\	.	16aa\	.	.	.	.	.	.	.	.	.	.
8B-\	.	8B-/	.	16gg\	.	16gg\	.	.	.	.	.	.	.	.	.	.
.	.	.	.	16ff\JJ	.	16ff\JJ	.	.	.	.	.	.	.	.	.	.
8B-\	.	8B-/	.	(16ee-\LL	.	16ee-\LL	.	.	4r	.	4r	.	4r	.	4r	.
!	!	!	!	!	!	!	!	!	!	!	!LO:LB:g=original	!	!	!	!	!
.	.	.	.	16dd\	.	16dd\	.	.	.	.	.	.	.	.	.	.
8B-\J	.	8B-/J	.	16cc\	.	16cc\	.	.	.	.	.	.	.	.	.	.
.	.	.	.	16b-\JJ)	.	16b-\JJ	.	.	.	.	.	.	.	.	.	.
*	*	*	*	*	*	*v	*v	*	*	*	*	*	*	*	*	*
=84	=84	=84	=84	=84	=84	=84	=84	=84	=84	=84	=84	=84	=84	=84	=84
8F\L	.	8f\L	.	4a/	.	4cc\	.	4f/	.	4cc\	.	4a/	.	4cc\	.
8F\	.	8f\	.	.	.	.	.	.	.	.	.	.	.	.	.
8F\	.	8f\	.	4b-/	.	4dd\	.	4b-\	.	4dd\	.	4b-/	.	4dd\	.
8F\J	.	8f\J	.	.	.	.	.	.	.	.	.	.	.	.	.
.	.	.	.	8qqdd/	.	8qqff/	.	8qqdd/	.	8qqff/	.	8qqdd/	.	8qqff/	.
8F\L	.	8f\L	.	2cc\	.	2ee-\	.	2cc\	.	2ee-\	.	2cc\	.	2ee-\	.
8F\	.	8f\	.	.	.	.	.	.	.	.	.	.	.	.	.
8F\	.	8f\	.	.	.	.	.	.	.	.	.	.	.	.	.
8F\J	.	8f\J	.	.	.	.	.	.	.	.	.	.	.	.	.
!LO:LB:g=original	!	!	!	!	!	!	!	!	!	!	!	!	!	!	!
=85	=85	=85	=85	=85	=85	=85	=85	=85	=85	=85	=85	=85	=85	=85	=85
!LO:TX:t=P:problem:mixed beam	!	!	!	!	!	!	!	!	!	!	!	!	!	!	!
.	.	.	.	8qqcc/	.	8qqee-/	.	8qqcc/	.	.	.	.	.	8qqee-/	.
8BB-/L	.	8f\L	.	4b-\	.	4dd\	.	4b-\	.	4dd\	.	4b-\	.	4dd\	.
8B-\	.	8dd\	.	.	.	.	.	.	.	.	.	.	.	.	.
8A\	.	8cc\	.	4r	.	4r	.	4r	.	4r	.	4r	.	4r	.
8G\J	.	8b-\J	.	.	.	.	.	.	.	.	.	.	.	.	.
8F\L	.	8an\L	.	2r	.	2r	.	2r	.	2r	.	2r	.	2r	.
8E-\	.	8g\	.	.	.	.	.	.	.	.	.	.	.	.	.
8D\	.	8f\	.	.	.	.	.	.	.	.	.	.	.	.	.
8C\J	.	8e-X\J	.	.	.	.	.	.	.	.	.	.	.	.	.
=86	=86	=86	=86	=86	=86	=86	=86	=86	=86	=86	=86	=86	=86	=86	=86
!LO:TX:t=P:problem:mixed beam	!	!	!	!	!	!	!	!	!	!	!	!	!	!	!
8BB-/L	p	8d\L	.	2B-/ 2f	pp	2d/ 2b-	p	[1B-	p	[1b-	p	2d/	p	2b-\	p
8B-\	.	8B-\	p	.	.	.	.	.	.	.	.	.	.	.	.
8B-\	.	8B-\	.	.	.	.	.	.	.	.	.	.	.	.	.
8B-\J	.	8B-\J	.	.	.	.	.	.	.	.	.	.	.	.	.
8B-\L	.	8B-/L	.	2d/ 2b-	.	2f/ 2dd	.	.	.	.	.	2b-\	.	2dd\	.
8B-\	.	8B-/	.	.	.	.	.	.	.	.	.	.	.	.	.
8B-\	.	8B-/	.	.	.	.	.	.	.	.	.	.	.	.	.
8B-\J	.	8B-/J	.	.	.	.	.	.	.	.	.	.	.	.	.
=87	=87	=87	=87	=87	=87	=87	=87	=87	=87	=87	=87	=87	=87	=87	=87
*	*	*	*	*	*	*^	*	*	*	*	*	*	*	*	*
8B-\L	.	8B-/L	.	2f/ 2dd	.	2ff/	2b-\	.	2B-/]	.	2b-\]	.	[2dd\	.	2ff\	.
8B-\	.	8B-/	.	.	.	.	.	.	.	.	.	.	.	.	.	.
8B-\	.	8B-/	.	.	.	.	.	.	.	.	.	.	.	.	.	.
8B-\J	.	8B-/J	.	.	.	.	.	.	.	.	.	.	.	.	.	.
8B-\L	.	8B-/L	.	16bb-\LL	.	16bb-\LL	2ryy	.	4B-/	.	4b-\	.	4dd\]	.	4bb-\	.
.	.	.	.	16aa\	.	16aa\	.	.	.	.	.	.	.	.	.	.
8B-\	.	8B-/	.	16gg\	.	16gg\	.	.	.	.	.	.	.	.	.	.
.	.	.	.	16ff\JJ	.	16ff\JJ	.	.	.	.	.	.	.	.	.	.
!	!	!	!	!	!	!LO:LB:g=original	!	!	!	!	!	!	!	!	!	!
8B-\	.	8B-/	.	16ee-\LL	.	16ee-\LL	.	.	4r	.	4r	.	4r	.	4r	.
!	!	!	!	!	!	!	!	!	!	!	!	!	!LO:LB:g=original	!	!	!
.	.	.	.	16dd\	.	16dd\	.	.	.	.	.	.	.	.	.	.
8B-\J	.	8B-/J	.	16cc\	.	16cc\	.	.	.	.	.	.	.	.	.	.
.	.	.	.	16b-\JJ	.	16b-\JJ	.	.	.	.	.	.	.	.	.	.
=88	=88	=88	=88	=88	=88	=88	=88	=88	=88	=88	=88	=88	=88	=88	=88	=88
!	!	!	!	!	!LO:DY:b:t=for	!	!	!	!	!	!	!LO:DY:b:t=for	!	!	!	!LO:DY:b:t=for
*	*	*	*	*tremolo	*	*	*	*	*	*	*	*	*	*	*	*
8d\L	.	8d\L	.	16b-\LL	f	4ff\	1b-	.	1B-	.	1b-	f	1b-	.	4ff\	f
.	.	.	.	16b-\	.	.	.	.	.	.	.	.	.	.	.	.
8B-\	.	8b-\	.	16b-\	.	.	.	.	.	.	.	.	.	.	.	.
.	.	.	.	16b-\	.	.	.	.	.	.	.	.	.	.	.	.
8e-\	.	8e-X\	.	16b-\	.	4gg\	.	.	.	.	.	.	.	.	4gg\	.
.	.	.	.	16b-\	.	.	.	.	.	.	.	.	.	.	.	.
8B-\J	.	8b-\J	.	16b-\	.	.	.	.	.	.	.	.	.	.	.	.
.	.	.	.	16b-\JJ	.	.	.	.	.	.	.	.	.	.	.	.
8f\L	.	8f\L	.	16b-\LL	.	4.bb-\	.	.	.	.	.	.	.	.	4.bb-\	.
.	.	.	.	16b-\	.	.	.	.	.	.	.	.	.	.	.	.
8e-\	.	8b-\	.	16b-\	.	.	.	.	.	.	.	.	.	.	.	.
.	.	.	.	16b-\	.	.	.	.	.	.	.	.	.	.	.	.
8d\	.	8d\	.	16b-\	.	.	.	.	.	.	.	.	.	.	.	.
.	.	.	.	16b-\	.	.	.	.	.	.	.	.	.	.	.	.
8B-\J	.	8b-\J	.	16b-\	.	8aa-X\	.	.	.	.	.	.	.	.	8aa-X\	.
!	!	!LO:LB:g=original	!	!	!	!	!	!	!	!	!	!	!	!	!LO:LB:g=original	!
.	.	.	.	16b-\JJ	.	.	.	.	.	.	.	.	.	.	.	.
*	*	*	*	*Xtremolo	*	*	*	*	*	*	*	*	*	*	*	*
!	!	!	!	!LO:LB:g=original	!	!	!	!	!	!	!	!	!	!	!	!
*	*	*	*	*	*	*v	*v	*	*	*	*	*	*	*	*	*
=89	=89	=89	=89	=89	=89	=89	=89	=89	=89	=89	=89	=89	=89	=89	=89
*	*	*	*	*^	*	*	*	*	*	*	*	*	*	*	*
!	!	!	!LO:DY:b:t=fortiſ	!	!	!	!	!LO:DY:b:t=fotiſs:	!	!	!	!	!	!	!	!
*	*	*Xtremolo	*	*	*Xtremolo	*	*	*	*	*	*	*	*	*	*	*
!	!LO:DY:b:t=fort.	!	!	!	!	!	!	!	!	!	!	!	!	!	!	!
8e-\L	f	8e-\L	ff	16b-/LL	16g\LL	.	4e-/ 4b- 4gg	ff	4B-/	.	4b-\	.	(1b-	.	[1gg	.
.	.	.	.	16b-/	16g\	.	.	.	.	.	.	.	.	.	.	.
8E-\	.	8e-\	.	16b-/	16g\	.	.	.	.	.	.	.	.	.	.	.
.	.	.	.	16b-/JJ	16g\JJ	.	.	.	.	.	.	.	.	.	.	.
*	*	*	*	*tremolo	*	*	*	*	*	*	*	*	*	*	*	*
8E-\	.	8e-\	.	16g/ 16b-LL	4ryy	.	2e-/	.	4r	.	4r	.	.	.	.	.
.	.	.	.	16g/ 16b-	.	.	.	.	.	.	.	.	.	.	.	.
8E-\J	.	8e-\J	.	16g/ 16b-	.	.	.	.	.	.	.	.	.	.	.	.
.	.	.	.	16g/ 16b-JJ	.	.	.	.	.	.	.	.	.	.	.	.
*	*	*tremolo	*	*	*	*	*	*	*	*	*	*	*	*	*	*
8E-\L	.	8e-\L	.	16g/ 16b-LL	2ryy	.	.	.	2r	.	2r	.	.	.	.	.
.	.	.	.	16g/ 16b-	.	.	.	.	.	.	.	.	.	.	.	.
8E-\	.	8e-\	.	16g/ 16b-	.	.	.	.	.	.	.	.	.	.	.	.
.	.	.	.	16g/ 16b-	.	.	.	.	.	.	.	.	.	.	.	.
8E-\	.	8e-\	.	16g/ 16b-	.	.	4gg\	.	.	.	.	.	.	.	.	.
.	.	.	.	16g/ 16b-	.	.	.	.	.	.	.	.	.	.	.	.
8E-\J	.	8e-\J	.	16g/ 16b-	.	.	.	.	.	.	.	.	.	.	.	.
.	.	.	.	16g/ 16b-JJ	.	.	.	.	.	.	.	.	.	.	.	.
*	*	*	*	*v	*v	*	*	*	*	*	*	*	*	*	*	*
=90	=90	=90	=90	=90	=90	=90	=90	=90	=90	=90	=90	=90	=90	=90	=90
!	!	!	!	!	!	!	!	!LO:TX:a:t=3	!	!LO:TX:a:t=3	!	!	!	!	!
*	*	*	*	*tremolo	*	*	*	*	*	*	*	*	*	*	*
8E-\L	.	8e-\L	.	16g/ 16b-LL	.	8bb-'\L	.	1r	.	1r	.	4ee-\)	.	4gg\]	.
.	.	.	.	16g/ 16b-	.	.	.	.	.	.	.	.	.	.	.
8E-\	.	8e-\	.	16g/ 16b-	.	8gg'\	.	.	.	.	.	.	.	.	.
.	.	.	.	16g/ 16b-	.	.	.	.	.	.	.	.	.	.	.
8E-\	.	8e-\	.	16g/ 16b-	.	8ee-'\	.	.	.	.	.	4r	.	4r	.
.	.	.	.	16g/ 16b-	.	.	.	.	.	.	.	.	.	.	.
8E-\J	.	8e-\J	.	16g/ 16b-	.	8b-'\J	.	.	.	.	.	.	.	.	.
.	.	.	.	16g/ 16b-JJ	.	.	.	.	.	.	.	.	.	.	.
8E-\L	.	8e-\L	.	16g/ 16b-LL	.	8g'/L	.	.	.	.	.	4ee-\	.	4gg\	.
.	.	.	.	16g/ 16b-	.	.	.	.	.	.	.	.	.	.	.
8E-\	.	8e-\	.	16g/ 16b-	.	8e-'/	.	.	.	.	.	.	.	.	.
.	.	.	.	16g/ 16b-	.	.	.	.	.	.	.	.	.	.	.
8E-\	.	8e-\	.	16g/ 16b-	.	8B-'/	.	.	.	.	.	4ee-\	.	4gg\	.
.	.	.	.	16g/ 16b-	.	.	.	.	.	.	.	.	.	.	.
8E-\J	.	8e-\J	.	16g/ 16b-	.	8G'/J	.	.	.	.	.	.	.	.	.
.	.	.	.	16g/ 16b-JJ	.	.	.	.	.	.	.	.	.	.	.
=91	=91	=91	=91	=91	=91	=91	=91	=91	=91	=91	=91	=91	=91	=91	=91
8E-\L	.	8e-\L	.	16f/ 16ccLL	.	4f/ 4cc 4aan	.	1r	.	1r	.	[1cc	.	[1aan	.
.	.	.	.	16f/ 16cc	.	.	.	.	.	.	.	.	.	.	.
8E-\	.	8e-\	.	16f/ 16cc	.	.	.	.	.	.	.	.	.	.	.
.	.	.	.	16f/ 16cc	.	.	.	.	.	.	.	.	.	.	.
8E-\	.	8e-\	.	16f/ 16cc	.	2f/	.	.	.	.	.	.	.	.	.
.	.	.	.	16f/ 16cc	.	.	.	.	.	.	.	.	.	.	.
8E-\J	.	8e-\J	.	16f/ 16cc	.	.	.	.	.	.	.	.	.	.	.
.	.	.	.	16f/ 16ccJJ	.	.	.	.	.	.	.	.	.	.	.
8E-\L	.	8e-\L	.	16f/ 16ccLL	.	.	.	.	.	.	.	.	.	.	.
.	.	.	.	16f/ 16cc	.	.	.	.	.	.	.	.	.	.	.
8E-\	.	8e-\	.	16f/ 16cc	.	.	.	.	.	.	.	.	.	.	.
.	.	.	.	16f/ 16cc	.	.	.	.	.	.	.	.	.	.	.
8E-\	.	8e-\	.	16f/ 16cc	.	4aa\	.	.	.	.	.	.	.	.	.
.	.	.	.	16f/ 16cc	.	.	.	.	.	.	.	.	.	.	.
8E-\J	.	8e-\J	.	16f/ 16cc	.	.	.	.	.	.	.	.	.	.	.
.	.	.	.	16f/ 16ccJJ	.	.	.	.	.	.	.	.	.	.	.
!LO:LB:g=original	!	!	!	!	!	!	!	!	!	!	!	!	!	!	!
=92	=92	=92	=92	=92	=92	=92	=92	=92	=92	=92	=92	=92	=92	=92	=92
*Xtremolo	*	*	*	*	*	*	*	*	*	*	*	*	*	*	*
8E-\L	.	1ryy	.	16f/ 16ccLL	.	8ccc'\L	.	1r	.	1r	.	4cc\]	.	4aa\]	.
.	.	.	.	16f/ 16cc	.	.	.	.	.	.	.	.	.	.	.
8E-\	.	.	.	16f/ 16cc	.	8aa'\	.	.	.	.	.	.	.	.	.
.	.	.	.	16f/ 16cc	.	.	.	.	.	.	.	.	.	.	.
8E-\	.	.	.	16f/ 16cc	.	8ff'\	.	.	.	.	.	4r	.	4r	.
.	.	.	.	16f/ 16cc	.	.	.	.	.	.	.	.	.	.	.
8E-\J	.	.	.	16f/ 16cc	.	8cc'\J	.	.	.	.	.	.	.	.	.
.	.	.	.	16f/ 16ccJJ	.	.	.	.	.	.	.	.	.	.	.
*tremolo	*	*	*	*	*	*	*	*	*	*	*	*	*	*	*
8E-\L	.	.	.	16f/ 16ccLL	.	8a'/L	.	.	.	.	.	4cc\	.	4aa\	.
.	.	.	.	16f/ 16cc	.	.	.	.	.	.	.	.	.	.	.
8E-\	.	.	.	16f/ 16cc	.	8f'/	.	.	.	.	.	.	.	.	.
.	.	.	.	16f/ 16cc	.	.	.	.	.	.	.	.	.	.	.
8E-\	.	.	.	16f/ 16cc	.	8c'/	.	.	.	.	.	4cc\	.	4aa\	.
.	.	.	.	16f/ 16cc	.	.	.	.	.	.	.	.	.	.	.
8E-\J	.	.	.	16f/ 16cc	.	8A'/J	.	.	.	.	.	.	.	.	.
!	!	!	!	!	!	!LO:LB:g=original	!	!	!	!	!	!	!	!	!
.	.	.	.	16f/ 16ccJJ	.	.	.	.	.	.	.	.	.	.	.
=93	=93	=93	=93	=93	=93	=93	=93	=93	=93	=93	=93	=93	=93	=93	=93
8D\L	.	8d\L	.	16b-\LL	.	4.bb-\	.	2B-/	.	2b-\	.	[1ff	.	2bb-\	.
.	.	.	.	16ff\	.	.	.	.	.	.	.	.	.	.	.
8D\	.	8d\	.	16ff\	.	.	.	.	.	.	.	.	.	.	.
.	.	.	.	16ff\JJ	.	.	.	.	.	.	.	.	.	.	.
8D\	.	8d\	.	16ff\LL	.	.	.	.	.	.	.	.	.	.	.
.	.	.	.	16ff\	.	.	.	.	.	.	.	.	.	.	.
8D\J	.	8d\J	.	16ff\	.	8ff\	.	.	.	.	.	.	.	.	.
.	.	.	.	16ff\JJ	.	.	.	.	.	.	.	.	.	.	.
8AA/L	.	8a\L	.	16ff\LL	.	4.ccc\	.	2f/	.	2cc\	.	.	.	2cccn\	.
!	!	!	!	!	!	!	!	!LO:LB:g=original	!	!	!	!	!	!	!
.	.	.	.	16ff\	.	.	.	.	.	.	.	.	.	.	.
8AA/	.	8a\	.	16ff\	.	.	.	.	.	.	.	.	.	.	.
.	.	.	.	16ff\	.	.	.	.	.	.	.	.	.	.	.
8AA/	.	8a\	.	16ff\	.	.	.	.	.	.	.	.	.	.	.
.	.	.	.	16ff\	.	.	.	.	.	.	.	.	.	.	.
8AA/J	.	8a\J	.	16ff\	.	8ff\	.	.	.	.	.	.	.	.	.
.	.	.	.	16ff\JJ	.	.	.	.	.	.	.	.	.	.	.
=94	=94	=94	=94	=94	=94	=94	=94	=94	=94	=94	=94	=94	=94	=94	=94
8BB-/L	.	8b-\L	.	16ff\LL	.	4ddd\	.	2b-\	.	2dd\	.	1ff_	.	4ddd\	.
.	.	.	.	16ff\	.	.	.	.	.	.	.	.	.	.	.
8BB-/	.	8b-\	.	16ff\	.	.	.	.	.	.	.	.	.	.	.
.	.	.	.	16ff\	.	.	.	.	.	.	.	.	.	.	.
8BB-/	.	8b-\	.	16ff\	.	2fff\	.	.	.	.	.	.	.	2ddd\	.
.	.	.	.	16ff\	.	.	.	.	.	.	.	.	.	.	.
8BB-/J	.	8b-\J	.	16ff\	.	.	.	.	.	.	.	.	.	.	.
.	.	.	.	16ff\JJ	.	.	.	.	.	.	.	.	.	.	.
*Xtremolo	*	*Xtremolo	*	*	*	*	*	*	*	*	*	*	*	*	*
8F\L	.	8f\L	.	16ff\LL	.	.	.	4r	.	4r	.	.	.	.	.
.	.	.	.	16ff\	.	.	.	.	.	.	.	.	.	.	.
8F\	.	8f\	.	16ff\	.	.	.	.	.	.	.	.	.	.	.
.	.	.	.	16ff\	.	.	.	.	.	.	.	.	.	.	.
8E-X\	.	8e-\	.	16ff\	.	4aan\	.	4f/	.	4cc\	.	.	.	4ccc\	.
!	!	!	!	!	!	!	!	!	!	!LO:LB:g=original	!	!	!	!	!
.	.	.	.	16ff\	.	.	.	.	.	.	.	.	.	.	.
8E-\J	.	8e-\J	.	16ff\	.	.	.	.	.	.	.	.	.	.	.
.	.	.	.	16ff\JJ	.	.	.	.	.	.	.	.	.	.	.
!	!	!	!	!LO:LB:g=original	!	!	!	!	!	!	!	!	!	!	!
=95	=95	=95	=95	=95	=95	=95	=95	=95	=95	=95	=95	=95	=95	=95	=95
*tremolo	*	*tremolo	*	*Xtremolo	*	*	*	*	*	*	*	*	*	*	*
8D\L	p	8d\L	p	16ff\LL	p	8r	p	2B-/	p	2b-\	p	1ff_	p	2bb-\	p
.	.	.	.	16ff\	.	.	.	.	.	.	.	.	.	.	.
8D\	.	8d\	.	16ff\	.	16bb-\LL	.	.	.	.	.	.	.	.	.
.	.	.	.	16ff\JJ	.	16aan\JJ	.	.	.	.	.	.	.	.	.
*	*	*	*	*tremolo	*	*	*	*	*	*	*	*	*	*	*
8D\	.	8d\	.	16ff\LL	.	8bb-\L	.	.	.	.	.	.	.	.	.
.	.	.	.	16ff\	.	.	.	.	.	.	.	.	.	.	.
8D\J	.	8d\J	.	16ff\	.	8bb-\J	.	.	.	.	.	.	.	.	.
.	.	.	.	16ff\JJ	.	.	.	.	.	.	.	.	.	.	.
8AA/L	.	8A/L	.	16ff\LL	.	8r	.	2f/	.	2cc\	.	.	.	2ccc\	.
.	.	.	.	16ff\	.	.	.	.	.	.	.	.	.	.	.
8AA/	.	8A/	.	16ff\	.	16ccc\LL	.	.	.	.	.	.	.	.	.
.	.	.	.	16ff\	.	16bb-\JJ	.	.	.	.	.	.	.	.	.
8AA/	.	8A/	.	16ff\	.	8ccc\L	.	.	.	.	.	.	.	.	.
.	.	.	.	16ff\	.	.	.	.	.	.	.	.	.	.	.
8AA/J	.	8A/J	.	16ff\	.	8ccc\J	.	.	.	.	.	.	.	.	.
.	.	.	.	16ff\JJ	.	.	.	.	.	.	.	.	.	.	.
=96	=96	=96	=96	=96	=96	=96	=96	=96	=96	=96	=96	=96	=96	=96	=96
8BB-/L	.	8B-/L	.	16ff\LL	.	8r	.	2b-\	.	2dd\	.	1ff_	.	2ddd\	.
.	.	.	.	16ff\	.	.	.	.	.	.	.	.	.	.	.
8BB-/	.	8B-/	.	16ff\	.	16ddd\LL	.	.	.	.	.	.	.	.	.
.	.	.	.	16ff\	.	16ccc#X\JJ	.	.	.	.	.	.	.	.	.
8BB-/	.	8B-/	.	16ff\	.	8ddd\L	.	.	.	.	.	.	.	.	.
.	.	.	.	16ff\	.	.	.	.	.	.	.	.	.	.	.
8BB-/J	.	8B-/J	.	16ff\	.	8ddd\J	.	.	.	.	.	.	.	.	.
.	.	.	.	16ff\JJ	.	.	.	.	.	.	.	.	.	.	.
8E-X\L	.	8e-\L	.	16ff\LL	.	8r	.	2f/	.	2cc\	.	.	.	2aa\	.
.	.	.	.	16ff\	.	.	.	.	.	.	.	.	.	.	.
8E-X\	.	8e-\	.	16ff\	.	(16aan\LL	.	.	.	.	.	.	.	.	.
.	.	.	.	16ff\	.	16gg\JJ)	.	.	.	.	.	.	.	.	.
8E-X\	.	8e-\	.	16ff\	.	8aa\L	.	.	.	.	.	.	.	.	.
.	.	.	.	16ff\	.	.	.	.	.	.	.	.	.	.	.
8E-X\J	.	8e-\J	.	16ff\	.	8aa\J	.	.	.	.	.	.	.	.	.
.	.	.	.	16ff\JJ	.	.	.	.	.	.	.	.	.	.	.
=97	=97	=97	=97	=97	=97	=97	=97	=97	=97	=97	=97	=97	=97	=97	=97
!	!LO:DY:b:t=for	!	!LO:DY:b:t=for	!	!	!	!LO:DY:b:t=fotiſs:	!	!LO:DY:b:t=for	!	!LO:DY:b:t=for	!	!	!	!LO:DY:b:t=for
8D\|L	f	8d\L	f	16b-/LL	.	16bb-\LL	ff	4B-/	f	4b-\	f	4ff\]	.	4bb-\	f
.	.	.	.	16a/	.	16aa\	.	.	.	.	.	.	.	.	.
8F\|	.	8f\	.	16g/	.	16gg\	.	.	.	.	.	.	.	.	.
.	.	.	.	16f/JJ	.	16ff\JJ	.	.	.	.	.	.	.	.	.
8D\|	.	8d\	.	16b-/LL	.	16bb-\LL	.	4B-/	.	4b-\	.	4r	.	4r	.
.	.	.	.	16a/	.	16aa\	.	.	.	.	.	.	.	.	.
8BB-\|J	.	8B-\J	.	16g/	.	16gg\	.	.	.	.	.	.	.	.	.
.	.	.	.	16f/JJ	.	16ff\JJ	.	.	.	.	.	.	.	.	.
!	!	!LO:LB:g=original	!	!	!	!LO:LB:g=original	!	!	!	!	!	!	!	!	!
8E-X\L	.	8g\L	.	16b-/LL	.	16bb-\LL	.	2B-/	.	2b-\	.	4r	.	4r	.
.	.	.	.	16a/	.	16aa\	.	.	.	.	.	.	.	.	.
8D\	.	8f\	.	16g/	.	16gg\	.	.	.	.	.	.	.	.	.
.	.	.	.	16f/JJ	.	16ff\JJ	.	.	.	.	.	.	.	.	.
8E-\	.	8g\	.	16e-X/LL	.	16ee-X\LL	.	.	.	.	.	4b-\	.	4bb-\	.
!	!	!	!	!	!	!	!	!	!	!	!	!LO:LB:g=original	!	!	!
.	.	.	.	16d/	.	16dd\	.	.	.	.	.	.	.	.	.
8En\J	.	8g\J	.	16c/	.	16cc\	.	.	.	.	.	.	.	.	.
.	.	.	.	16B-X/JJ	.	16b-\JJ	.	.	.	.	.	.	.	.	.
=98	=98	=98	=98	=98	=98	=98	=98	=98	=98	=98	=98	=98	=98	=98	=98
4F\	.	4f\	.	4c/	.	4a/ 4ff	.	4f/	.	4cc\	.	4cc\	.	4aa\	.
8.C/L	.	8.f\L	.	8.A/L 8.f	.	8.A/L 8.f	.	4f/	.	4cc\	.	4cc\	.	4aa\	.
16AA/Jk	.	16f\Jk	.	16A/Jk 16f	.	16A/Jk 16f	.	.	.	.	.	.	.	.	.
4FF/	.	4f\	.	4A/ 4f	.	4A/ 4f	.	4f/	.	4cc\	.	4cc\	.	4aa\	.
4r	.	4r	.	4r	.	4r	.	4r	.	4r	.	4r	.	4r	.
!LO:LB:g=original	!	!	!	!	!	!	!	!	!	!	!	!	!	!LO:LB:g=original	!
=99	=99	=99	=99	=99	=99	=99	=99	=99	=99	=99	=99	=99	=99	=99	=99
!	!	!	!	!	!	!	!	!LO:TX:a:t=12	!	!LO:TX:a:t=12	!	!LO:TX:a:t=12	!	!LO:TX:a:t=12	!
!	!	!	!LO:DY:b:t=pia	!	!	!	!LO:DY:b:t=pia	!	!	!	!	!	!	!	!
4BB-/	p	4f\	p	4.f/	p	4.ff\	p	1r	.	1r	.	1r	.	1r	.
4r	.	4r	.	.	.	.	.	.	.	.	.	.	.	.	.
.	.	.	.	8e-/	.	8ee-\	.	.	.	.	.	.	.	.	.
!	!	!	!	!	!	!LO:TX:b:t=dolce	!	!	!	!	!	!	!	!	!
4B-\	.	4f\	.	8d/|L	.	(8dd\L	.	.	.	.	.	.	.	.	.
.	.	.	.	(8b-/	.	8bb-\	.	.	.	.	.	.	.	.	.
4r	.	4r	.	8a/	.	8aa\	.	.	.	.	.	.	.	.	.
.	.	.	.	8g/J)	.	8gg\J)	.	.	.	.	.	.	.	.	.
!	!	!	!	!LO:LB:g=original	!	!	!	!	!	!	!	!	!	!	!
=100	=100	=100	=100	=100	=100	=100	=100	=100	=100	=100	=100	=100	=100	=100	=100
4c\	.	4c/	.	8f/L	.	(8ff\L	.	1r	.	1r	.	1r	.	1r	.
.	.	.	.	8e-/	.	8ee-X\	.	.	.	.	.	.	.	.	.
4r	.	4r	.	8d/	.	8dd\	.	.	.	.	.	.	.	.	.
.	.	.	.	8e-/J	.	8ee-\J)	.	.	.	.	.	.	.	.	.
.	.	.	.	8qqd/	.	.	.	.	.	.	.	.	.	.	.
(8c\L	.	(8e-\L	.	2e-/	.	2ee-\	.	.	.	.	.	.	.	.	.
8B-\	.	8d\	.	.	.	.	.	.	.	.	.	.	.	.	.
8A\	.	8c\	.	.	.	.	.	.	.	.	.	.	.	.	.
8G\J)	.	8B-\J)	.	.	.	.	.	.	.	.	.	.	.	.	.
=101	=101	=101	=101	=101	=101	=101	=101	=101	=101	=101	=101	=101	=101	=101	=101
.	.	.	.	16qqc/LL	.	16qqcc/LL	.	.	.	.	.	.	.	.	.
.	.	.	.	16qqd/JJ	.	16qqdd/JJ	.	.	.	.	.	.	.	.	.
4F\	.	4A/	.	4.e-/	.	4.ee-\	.	1r	.	1r	.	1r	.	1r	.
4r	.	4r	.	.	.	.	.	.	.	.	.	.	.	.	.
.	.	.	.	8d/	.	8dd\	.	.	.	.	.	.	.	.	.
4A\	.	4c/	.	8c/|L	.	8cc\|L	.	.	.	.	.	.	.	.	.
.	.	.	.	(8g/	.	(8gg\	.	.	.	.	.	.	.	.	.
4r	.	4r	.	8f/	.	8ff\	.	.	.	.	.	.	.	.	.
.	.	.	.	8e-/J)	.	8ee-\J)	.	.	.	.	.	.	.	.	.
!	!	!	!	!	!	!LO:LB:g=original	!	!	!	!	!	!	!	!	!
=102	=102	=102	=102	=102	=102	=102	=102	=102	=102	=102	=102	=102	=102	=102	=102
4B-\	.	4B-/	.	8e-/L	.	8ee-X\L	.	1r	.	1r	.	1r	.	1r	.
.	.	.	.	(8d/	.	(8dd\	.	.	.	.	.	.	.	.	.
4r	.	4r	.	8c#X/	.	8cc#X\	.	.	.	.	.	.	.	.	.
.	.	.	.	8d/J)	.	8dd\J)	.	.	.	.	.	.	.	.	.
8B-\L	.	8b-\L	.	2d/	.	2dd\	.	.	.	.	.	.	.	.	.
8F\	.	8f\	.	.	.	.	.	.	.	.	.	.	.	.	.
8D\	.	8d\	.	.	.	.	.	.	.	.	.	.	.	.	.
8BB-\J	.	8B-\J	.	.	.	.	.	.	.	.	.	.	.	.	.
=103	=103	=103	=103	=103	=103	=103	=103	=103	=103	=103	=103	=103	=103	=103	=103
4E-\	.	4g\	.	2r	.	8ccn\L	.	1r	.	1r	.	1r	.	1r	.
.	.	.	.	.	.	(8bn\	.	.	.	.	.	.	.	.	.
4r	.	4r	.	.	.	8dd\	.	.	.	.	.	.	.	.	.
.	.	.	.	.	.	8cc\J	.	.	.	.	.	.	.	.	.
2r	.	2r	.	(8c/L	.	8ee-X\L	.	.	.	.	.	.	.	.	.
.	.	.	.	8Bn/	.	8dd\)	.	.	.	.	.	.	.	.	.
.	.	.	.	8d/	.	8ff\	.	.	.	.	.	.	.	.	.
.	.	.	.	8c/J)	.	8ee-\J	.	.	.	.	.	.	.	.	.
=104	=104	=104	=104	=104	=104	=104	=104	=104	=104	=104	=104	=104	=104	=104	=104
.	.	.	.	.	.	8qqff#X/	.	.	.	.	.	.	.	.	.
4r	.	4r	.	4e-/	.	4gg\	.	1r	.	1r	.	1r	.	1r	.
(4E-\	.	2g\	.	2e-/	.	2gg\	.	.	.	.	.	.	.	.	.
4G\	.	.	.	.	.	.	.	.	.	.	.	.	.	.	.
.	.	.	.	.	.	8qqccc/	.	.	.	.	.	.	.	.	.
4An\)	.	4an\	.	4e-/	.	8bb-\L	.	.	.	.	.	.	.	.	.
!	!	!LO:LB:g=original	!	!	!	!	!	!	!	!	!	!	!	!	!
.	.	.	.	.	.	16aa\L	.	.	.	.	.	.	.	.	.
.	.	.	.	.	.	16gg\JJ	.	.	.	.	.	.	.	.	.
=105	=105	=105	=105	=105	=105	=105	=105	=105	=105	=105	=105	=105	=105	=105	=105
!	!	!	!	!	!	!LO:TX:a:t=t	!	!	!	!	!	!	!	!	!
4B-\	.	4b-\	.	8.d/L	.	8.ff\L	.	1r	.	1r	.	1r	.	1r	.
!	!	!	!	!LO:N:vis=16	!	!	!	!	!	!	!	!	!	!	!
.	.	.	.	32e-/LL	.	32gg\LL	.	.	.	.	.	.	.	.	.
!	!	!	!	!LO:N:vis=16	!	!	!	!	!	!	!	!	!	!	!
.	.	.	.	32d/JJJ	.	32ff\JJJ	.	.	.	.	.	.	.	.	.
4r	.	4r	.	8c/L	.	8ee-X\L	.	.	.	.	.	.	.	.	.
.	.	.	.	8B-X/J	.	8dd\J	.	.	.	.	.	.	.	.	.
!	!	!	!	!	!	!LO:TX:a:t=t	!	!	!	!	!	!	!	!	!
4BB-/	.	4f\	.	8.d/L	.	8.ff\L	.	.	.	.	.	.	.	.	.
.	.	.	.	32e-/LL	.	32gg\LL	.	.	.	.	.	.	.	.	.
.	.	.	.	32d/JJJ	.	32ff\JJJ	.	.	.	.	.	.	.	.	.
4r	.	4r	.	8c/L	.	8ee-\L	.	.	.	.	.	.	.	.	.
!LO:LB:g=original	!	!	!	!	!	!	!	!	!	!	!	!	!	!	!
.	.	.	.	8B-/J	.	8dd\J	.	.	.	.	.	.	.	.	.
!	!	!	!	!LO:LB:g=original	!	!	!	!	!	!	!	!	!	!	!
=106	=106	=106	=106	=106	=106	=106	=106	=106	=106	=106	=106	=106	=106	=106	=106
2E-\	.	2g\	.	4.f/	.	(8cc\L	.	1r	.	1r	.	1r	.	1r	.
.	.	.	.	.	.	8bn\	.	.	.	.	.	.	.	.	.
.	.	.	.	.	.	8cc\)	.	.	.	.	.	.	.	.	.
.	.	.	.	8e-/	.	8gg\|J	.	.	.	.	.	.	.	.	.
4F\	.	4f\	.	8d/L	.	(8ffn\L	.	.	.	.	.	.	.	.	.
.	.	.	.	8c/	.	8ee-\	.	.	.	.	.	.	.	.	.
4FF/	.	4e-\	.	8B-/	.	8dd\)	.	.	.	.	.	.	.	.	.
.	.	.	.	8A/J	.	8cc\|J	.	.	.	.	.	.	.	.	.
!	!	!	!	!	!	!LO:LB:g=original	!	!	!	!	!	!	!	!	!
=107	=107	=107	=107	=107	=107	=107	=107	=107	=107	=107	=107	=107	=107	=107	=107
8r	.	[2f\	.	(2A/	.	(2cc#X\	.	1r	.	1r	.	1r	.	1r	.
8BB-/L	.	.	.	.	.	.	.	.	.	.	.	.	.	.	.
8D/	.	.	.	.	.	.	.	.	.	.	.	.	.	.	.
8F/J	.	.	.	.	.	.	.	.	.	.	.	.	.	.	.
8B-\L	.	4f\]	.	4B-/)	.	4dd\)	.	.	.	.	.	.	.	.	.
8F\	.	.	.	.	.	.	.	.	.	.	.	.	.	.	.
8D\	.	4r	.	4r	.	4r	.	.	.	.	.	.	.	.	.
8BB-\J	.	.	.	.	.	.	.	.	.	.	.	.	.	.	.
=108	=108	=108	=108	=108	=108	=108	=108	=108	=108	=108	=108	=108	=108	=108	=108
.	.	.	.	.	.	8qqff#X/	.	.	.	.	.	.	.	.	.
4r	.	4r	.	4e-/	.	4gg\	.	1r	.	1r	.	1r	.	1r	.
(4E-\	.	2g\	.	2e-/	.	2gg\	.	.	.	.	.	.	.	.	.
4G\)	.	.	.	.	.	.	.	.	.	.	.	.	.	.	.
.	.	.	.	.	.	8qqccc/	.	.	.	.	.	.	.	.	.
4A\	.	4an\	.	4e-/	.	8bb-\L	.	.	.	.	.	.	.	.	.
.	.	.	.	.	.	16aa\L	.	.	.	.	.	.	.	.	.
.	.	.	.	.	.	16gg\JJ	.	.	.	.	.	.	.	.	.
=109	=109	=109	=109	=109	=109	=109	=109	=109	=109	=109	=109	=109	=109	=109	=109
!	!	!	!	!	!	!LO:TX:a:t=t	!	!	!	!	!	!	!	!	!
4B-\	.	4b-\	.	8.d/L	.	8.ffn\L	.	1r	.	1r	.	1r	.	1r	.
.	.	.	.	32e-/LL	.	32gg\LL	.	.	.	.	.	.	.	.	.
.	.	.	.	32d/JJJ	.	32ff\JJJ	.	.	.	.	.	.	.	.	.
4r	.	4r	.	8c/L	.	(8ee-\L	.	.	.	.	.	.	.	.	.
.	.	.	.	8B-/J	.	8dd\J)	.	.	.	.	.	.	.	.	.
!	!	!	!	!	!	!LO:TX:a:t=t	!	!	!	!	!	!	!	!	!
4BB-/	.	4f\	.	8.d/L	.	8.ff\L	.	.	.	.	.	.	.	.	.
.	.	.	.	(32e-/LL	.	32gg\LL	.	.	.	.	.	.	.	.	.
.	.	.	.	32d/JJJ)	.	32ff\JJJ	.	.	.	.	.	.	.	.	.
4r	.	4r	.	8c/L	.	8ee-\L	.	.	.	.	.	.	.	.	.
.	.	.	.	8B-/J	.	8dd\J	.	.	.	.	.	.	.	.	.
=110	=110	=110	=110	=110	=110	=110	=110	=110	=110	=110	=110	=110	=110	=110	=110
.	.	.	.	.	.	8qqgg/	.	.	.	.	.	.	.	.	.
*	*	*	*	*	*	*Xtremolo	*	*	*	*	*	*	*	*	*
2E-\	.	2g\	.	8g/L	.	(8bb-\L	.	1r	.	1r	.	1r	.	1r	.
.	.	.	.	8e-/	.	8gg\)	.	.	.	.	.	.	.	.	.
.	.	.	.	8e-/	.	(8gg\	.	.	.	.	.	.	.	.	.
.	.	.	.	8c/J	.	8ee-\J)	.	.	.	.	.	.	.	.	.
4F\	.	4f\	.	(8f/L	.	8dd\L	.	.	.	.	.	.	.	.	.
.	.	.	.	8d/	.	(8b-\	.	.	.	.	.	.	.	.	.
4FF/	.	4f\	.	8e-/	.	8cc\	.	.	.	.	.	.	.	.	.
.	.	.	.	8c/J)	.	8a\J)	.	.	.	.	.	.	.	.	.
=111	=111	=111	=111	=111	=111	=111	=111	=111	=111	=111	=111	=111	=111	=111	=111
!	!	!	!	!	!	!	!LO:DY:b:t=for	!	!	!	!	!	!	!	!
*Xtremolo	*	*	*	*Xtremolo	*	*	*	*	*	*	*	*	*	*	*
!	!LO:HP:t=cres	!	!LO:HP:t=cres	!	!LO:HP:t=cres	!	!	!	!	!	!	!	!LO:HP:t=cres	!	!
8BB-/L	<	8B-/L	<	8d/L	f	8b-\|	f	[1B-	pp	[1b-	pp	1b-	<[	1bb-	p
8BB-/	.	8B-/	.	8d/	<	(8b-\L	p	.	.	.	.	.	.	.	.
8BB-/	.	8B-/	.	8d/	.	8b-\	.	.	.	.	.	.	.	.	.
8BB-/J	.	8B-/J	.	8d/J	.	8b-\J)	.	.	.	.	.	.	.	.	.
*tremolo	*	*	*	*	*	*	*	*	*	*	*	*	*	*	*
8BB-/L	[[	8B-/L	[[	(8f/L	.	(8dd\L	.	.	.	.	.	.	.	.	.
8BB-/	.	8B-/	.	8d/)	.	8b-\)	.	.	.	.	.	.	.	.	.
8BB-/	.	8B-/	.	8d'/	.	8b-'\	.	.	.	.	.	.	.	.	.
8BB-/J	.	8B-/J	.	8d'/J	[[	8b-'\J	.	.	.	.	.	.	.	.	.
!	!	!	!	!LO:LB:g=original	!	!LO:LB:g=original	!	!	!	!	!	!	!	!	!
=112	=112	=112	=112	=112	=112	=112	=112	=112	=112	=112	=112	=112	=112	=112	=112
8BB-/L	.	8B-/L	.	8a\L	.	8cc\|L	f	1B-_	.	1b-_	.	1cc	.	1aan	.
8BB-/	.	8B-/	.	8a\	.	(8cc\	p	.	.	.	.	.	.	.	.
8BB-/	.	8B-/	.	8a\	.	8cc\	.	.	.	.	.	.	.	.	.
8BB-/J	.	8B-/J	.	8a\J	.	8cc\J)	.	.	.	.	.	.	.	.	.
8BB-/L	.	8B-/L	.	(8cc\L	.	(8ee-\L	.	.	.	.	.	.	.	.	.
8BB-/	.	8B-/	.	8a\)	.	8cc\)	.	.	.	.	.	.	.	.	.
8BB-/	.	8B-/	.	8a'\	.	8cc'\	.	.	.	.	.	.	.	.	.
8BB-/J	.	8B-/J	.	8a'\J	.	8cc'\J	.	.	.	.	.	.	.	.	.
!	!	!LO:LB:g=original	!	!	!	!	!	!	!	!	!	!	!	!	!
=113	=113	=113	=113	=113	=113	=113	=113	=113	=113	=113	=113	=113	=113	=113	=113
*	*	*	*	*tremolo	*	*	*	*	*	*	*	*	*	*	*
!	!	!	!	!	!	!	!	!	!	!	!	!	!	!	!LO:HP:t=cres
8BB-/L	.	8b-\L	.	8b-\L	.	8dd\L	fp	1B-_	.	1b-_	.	1dd	.	1aa-X	<[
8BB-/	.	8b-\	.	8b-\	.	8dd\	.	.	.	.	.	.	.	.	.
8BB-/	.	8b-\	.	8b-\	.	8dd\	.	.	.	.	.	.	.	.	.
8BB-/J	.	8b-\J	.	8b-\J	.	8dd\J	.	.	.	.	.	.	.	.	.
8BB-/L	.	8b-\L	.	(8dd\L	.	(8ff\L	.	.	.	.	.	.	.	.	.
8BB-/	.	8b-\	.	8b-\)	.	8dd\)	.	.	.	.	.	.	.	.	.
8BB-/	.	8b-\	.	8b-'\	.	8dd'\	.	.	.	.	.	.	.	.	.
8BB-/J	.	8b-\J	.	8b-'\J	.	8dd'\J	.	.	.	.	.	.	.	.	.
!LO:LB:g=original	!	!	!	!	!	!	!	!	!	!	!	!	!	!	!
=114	=114	=114	=114	=114	=114	=114	=114	=114	=114	=114	=114	=114	=114	=114	=114
*	*	*	*	*Xtremolo	*	*	*	*	*	*	*	*	*	*	*
8BB-/L	.	8b-\L	.	8cc\L	.	8ee-\L	fp	1B-_	.	1b-_	.	1ee-	.	1gg	.
!	!	!	!	!	!	!	!	!LO:LB:g=original	!	!	!	!	!	!	!
8BB-/	.	8b-\	.	8cc\	.	(8ee-\	.	.	.	.	.	.	.	.	.
8BB-/	.	8b-\	.	8cc\	.	8ee-\	.	.	.	.	.	.	.	.	.
8BB-/J	.	8b-\J	.	8cc\J	.	8ee-\J)	.	.	.	.	.	.	.	.	.
8BB-/L	.	8b-\L	.	(8ee-\L	.	(8gg\L	.	.	.	.	.	.	.	.	.
8BB-/	.	8b-\	.	8cc\)	.	8ee-\)	.	.	.	.	.	.	.	.	.
8BB-/	.	8b-\	.	8cc'\	.	8ee-'\	.	.	.	.	.	.	.	.	.
8BB-/J	.	8b-\J	.	8cc'\J	.	8ee-'\J	.	.	.	.	.	.	.	.	.
=115	=115	=115	=115	=115	=115	=115	=115	=115	=115	=115	=115	=115	=115	=115	=115
4BB-/	.	4b-\	.	8dd'\L	.	8ff'\L	.	4B-/]	.	4b-\]	.	8dd\L	.	8ff\L	.
!	!	!	!	!	!	!	!	!	!	!	!	!	!	!LO:TX:t=P:problem:bemol nad nutą	!
.	.	.	.	8cc'\	.	8ee-'\	.	.	.	.	.	8cc\	.	8ee-X\	.
4r	.	4r	.	8b-'\	.	8dd'\	.	4r	.	4r	.	8b-\	.	8dd\	.
!	!	!	!	!LO:SIC:s=8a-	!	!	!	!	!	!	!	!	!	!	!
.	.	.	.	8a'\J	.	8cc'\J	.	.	.	.	.	8a-X\J	.	8cc\J	.
2r	.	2r	.	8g/L	.	8b-/L	.	2r	.	2r	.	8g/L	.	8b-X/L	.
!	!	!	!	!	!	!	!	!	!	!LO:LB:g=original	!	!	!	!	!
.	.	.	.	8f/	.	8a-X/	.	.	.	.	.	8f/	.	8a-X/	.
.	.	.	.	8e-X/	.	8g/	.	.	.	.	.	8e-/	.	8g/	.
.	.	.	.	8d/J	.	8f#X/J	.	.	.	.	.	8d/J	.	8f#X/J	.
=116	=116	=116	=116	=116	=116	=116	=116	=116	=116	=116	=116	=116	=116	=116	=116
!	!	!	!	!	!	!	!	!	!	!LO:TX:a:t=1	!	!	!	!	!
4E-\	.	4e-\	.	4e-/	.	4g/	.	1r	.	1r	.	4e-/	.	4g/	.
4r	.	4r	.	4r	.	4r	.	.	.	.	.	4r	.	2gg\	.
8r	.	8r	.	2r	.	2r	.	.	.	.	.	2r	.	.	.
(8E-\L	.	8g\L	.	.	.	.	.	.	.	.	.	.	.	.	.
8F\	.	8f\	.	.	.	.	.	.	.	.	.	.	.	(8ffn\L	.
8G\J)	.	8e-\J	.	.	.	.	.	.	.	.	.	.	.	8ee-X\J)	.
=117	=117	=117	=117	=117	=117	=117	=117	=117	=117	=117	=117	=117	=117	=117	=117
*	*	*	*	*tremolo	*	*tremolo	*	*	*	*	*	*	*	*	*
8F\L	.	8f\L	.	8b-\L	.	8dd\L	.	2b-\	.	2dd\	.	2b-\	.	2dd\	.
8F\	.	8f\	.	8b-\	.	8dd\	.	.	.	.	.	.	.	.	.
8F\	.	8f\	.	8b-\	.	8dd\	.	.	.	.	.	.	.	.	.
8F\J	.	8f\J	.	8b-\J	.	8dd\J	.	.	.	.	.	.	.	.	.
!	!	!	!	!	!	!	!	!	!	!	!	!LO:TX:a:t=t	!	!LO:TX:a:t=t	!
8FF/L	.	8f\L	.	8a/L	.	8cc\L	.	2f/	.	2cc\	.	2a\	.	2ccn\	.
!	!	!	!	!	!	!	!	!	!	!	!	!LO:LB:g=original	!	!	!
8FF/	.	8f\	.	8a/	.	8cc\	.	.	.	.	.	.	.	.	.
8FF/	.	8f\	.	8a/	.	8cc\	.	.	.	.	.	.	.	.	.
8FF/J	.	8f\J	.	8a/J	.	8cc\J	.	.	.	.	.	.	.	.	.
!	!	!	!	!LO:LB:g=original	!	!LO:LB:g=original	!	!	!	!	!	!	!	!	!
=118	=118	=118	=118	=118	=118	=118	=118	=118	=118	=118	=118	=118	=118	=118	=118
!	!	!	!	!	!LO:DY:b:t=rin for	!LO:HP:t=cres	!	!	!	!	!	!	!	!	!
4BB-/	.	4B-/	.	8b-'\L	rfz	8dd\L	<	4B-/	.	4b-\	.	4b-\	.	4b-\	.
.	.	.	.	8b-'\	.	(8dd\	.	.	.	.	.	.	.	.	.
4r	.	4r	.	8cc'\	.	8ee-\	.	4r	.	4r	.	4r	.	4r	.
.	.	.	.	8dd'\J	.	8ff\J)	.	.	.	.	.	.	.	.	.
2r	.	2r	.	8ee-\L	.	(8gg\L	.	2r	.	2r	.	2r	.	2r	.
!	!	!	!	!	!	!	!	!	!	!	!	!	!	!LO:LB:g=original	!
.	.	.	.	8ff\	.	8aa\)	.	.	.	.	.	.	.	.	.
.	.	.	.	8gg\	.	8bb-'\	.	.	.	.	.	.	.	.	.
.	.	.	.	8aa\J	.	8ccc'\J	[[	.	.	.	.	.	.	.	.
=119	=119	=119	=119	=119	=119	=119	=119	=119	=119	=119	=119	=119	=119	=119	=119
!	!	!	!	!	!	!	!	!	!	!	!	!LO:TX:a:t=1	!	!LO:TX:a:t=1	!
!	!LO:HP:t=cres	!	!LO:HP:t=cres	!	!	!	!LO:DY:b:t=rin for	!	!	!	!	!	!	!	!
8BB-/L	<	1f	<	1bb-	.	1ddd	rfz	[1B-	.	[1b-	.	1r	.	1r	.
(8C/	.	.	.	.	.	.	.	.	.	.	.	.	.	.	.
8D/	.	.	.	.	.	.	.	.	.	.	.	.	.	.	.
8E-X/J)	.	.	.	.	.	.	.	.	.	.	.	.	.	.	.
8F\L	.	.	.	.	.	.	.	.	.	.	.	.	.	.	.
8G\	.	.	.	.	.	.	.	.	.	.	.	.	.	.	.
8A\	.	.	.	.	.	.	.	.	.	.	.	.	.	.	.
8B-\J	[[	.	.	.	.	.	.	.	.	.	.	.	.	.	.
=120	=120	=120	=120	=120	=120	=120	=120	=120	=120	=120	=120	=120	=120	=120	=120
!	!	!	!LO:DY:b:t=for	!	!LO:DY:b:t=fortiſ	!	!LO:DY:b:t=fotiſs:	!	!	!	!	!	!	!	!
*Xtremolo	*	*	*	*Xtremolo	*	*Xtremolo	*	*	*	*	*	*	*	*	*
!	!LO:DY:b:t=fortiſ	!	!	!	!	!	!	!	!	!	!	!	!	!	!
8BB-/L	ff	16f\LL	f	16bb-\LL	ff	16ddd\LL	ff	1B-_	.	1b-_	.	(4dd\	.	4ddd\	.
.	.	16f\	.	16bb-\	.	16ddd\	.	.	.	.	.	.	.	.	.
8BB-/	.	16f\	.	16bb-\	.	16ddd\	.	.	.	.	.	.	.	.	.
.	.	16f\JJ	.	16bb-\JJ	.	16ddd\JJ	.	.	.	.	.	.	.	.	.
*tremolo	*	*	*	*tremolo	*	*tremolo	*	*	*	*	*	*	*	*	*
8C/	.	16e-X\LL	.	16ee-X\LL	.	16aa\LL	.	.	.	.	.	4ee-X\	.	4ccc\	.
.	.	16e-X\	.	16ee-X\	.	16aa\	.	.	.	.	.	.	.	.	.
8C/J	.	16e-X\	.	16ee-X\	.	16aa\	.	.	.	.	.	.	.	.	.
.	.	16e-X\JJ	.	16ee-X\JJ	.	16aa\JJ	.	.	.	.	.	.	.	.	.
!	!	!LO:LB:g=original	!	!	!	!	!	!	!	!	!	!	!	!	!
8D/L	.	16d\LL	.	16ff\LL	.	16bb-\LL	.	.	.	.	.	4ff\)	.	4bb-X\	.
.	.	16d\	.	16ff\	.	16bb-\	.	.	.	.	.	.	.	.	.
8D/	.	16d\	.	16ff\	.	16bb-\	.	.	.	.	.	.	.	.	.
.	.	16d\	.	16ff\JJ	.	16bb-\JJ	.	.	.	.	.	.	.	.	.
8D/	.	16d\	.	16dd\LL	.	16ff#X\LL	.	.	.	.	.	4dd\	.	4ff#X\	.
.	.	16d\	.	16dd\	.	16ff#X\	.	.	.	.	.	.	.	.	.
8D/J	.	16d\	.	16dd\	.	16ff#X\	.	.	.	.	.	.	.	.	.
.	.	16d\JJ	.	16dd\JJ	.	16ff#X\JJ	.	.	.	.	.	.	.	.	.
!LO:LB:g=original	!	!	!	!	!	!	!	!	!	!	!	!	!	!	!
=121	=121	=121	=121	=121	=121	=121	=121	=121	=121	=121	=121	=121	=121	=121	=121
*Xtremolo	*	*	*	*	*	*Xtremolo	*	*	*	*	*	*	*	*	*
8E-\L	.	16e-\LL	.	16b-\LL	.	16gg\LL	.	(1B-]	.	1b-]	.	1b-	.	4gg\	.
.	.	16e-\	.	16b-\	.	16gg\	.	.	.	.	.	.	.	.	.
8E-\	.	16e-\	.	16b-\	.	16gg\	.	.	.	.	.	.	.	.	.
.	.	16e-\	.	16b-\	.	16gg\JJ	.	.	.	.	.	.	.	.	.
*	*	*	*	*	*	*tremolo	*	*	*	*	*	*	*	*	*
8G\	.	16e-\	.	16b-\	.	16ee-X\LL	.	.	.	.	.	.	.	4ee-X\	.
.	.	16e-\	.	16b-\	.	16ee-X\	.	.	.	.	.	.	.	.	.
8G\J	.	16e-\	.	16b-\	.	16ee-X\	.	.	.	.	.	.	.	.	.
.	.	16e-\JJ	.	16b-\JJ	.	16ee-X\JJ	.	.	.	.	.	.	.	.	.
8F\L	.	16f\LL	.	16b-\LL	.	16dd\LL	.	.	.	.	.	.	.	4dd\	.
.	.	16f\	.	16b-\	.	16dd\	.	.	.	.	.	.	.	.	.
8F\	.	16f\	.	16b-\	.	16dd\	.	.	.	.	.	.	.	.	.
.	.	16f\JJ	.	16b-\JJ	.	16dd\JJ	.	.	.	.	.	.	.	.	.
8En\	.	16g\LL	.	16cc\LL	.	16cc\LL	.	.	.	.	.	.	.	4ccn\	.
.	.	16g\	.	16cc\	.	16cc\	.	.	.	.	.	.	.	.	.
8E\J	.	16g\	.	16cc\	.	16cc\	.	.	.	.	.	.	.	.	.
.	.	16g\JJ	.	16cc\JJ	.	16cc\JJ	.	.	.	.	.	.	.	.	.
=122	=122	=122	=122	=122	=122	=122	=122	=122	=122	=122	=122	=122	=122	=122	=122
*tremolo	*	*	*	*	*	*	*	*	*	*	*	*	*	*	*
8F\L	.	16f\LL	.	16b-/LL	.	16dd\LL	.	2b-\)	.	2dd\	.	2b-\	.	2dd\	.
.	.	16f\	.	16b-/	.	16dd\	.	.	.	.	.	.	.	.	.
8F\	.	16f\	.	16b-/	.	16dd\	.	.	.	.	.	.	.	.	.
.	.	16f\	.	16b-/	.	16dd\	.	.	.	.	.	.	.	.	.
8F\	.	16f\	.	16b-/	.	16dd\	.	.	.	.	.	.	.	.	.
.	.	16f\	.	16b-/	.	16dd\	.	.	.	.	.	.	.	.	.
8F\J	.	16f\	.	16b-/	.	16dd\	.	.	.	.	.	.	.	.	.
.	.	16f\JJ	.	16b-/JJ	.	16dd\JJ	.	.	.	.	.	.	.	.	.
8FF/L	.	16f\LL	.	16an/LL	.	16cc\LL	.	2f/	.	2cc\	.	2a/	.	2cc\	.
.	.	16f\	.	16an/	.	16cc\	.	.	.	.	.	.	.	.	.
8FF/	.	16f\	.	16an/	.	16cc\	.	.	.	.	.	.	.	.	.
.	.	16f\	.	16an/	.	16cc\	.	.	.	.	.	.	.	.	.
8FF/	.	16f\	.	16an/	.	16cc\	.	.	.	.	.	.	.	.	.
.	.	16f\	.	16an/	.	16cc\	.	.	.	.	.	.	.	.	.
8FF/J	.	16f\	.	16an/	.	16cc\	.	.	.	.	.	.	.	.	.
.	.	16f\JJ	.	16an/JJ	.	16cc\JJ	.	.	.	.	.	.	.	.	.
!	!	!	!	!	!	!LO:LB:g=original	!	!	!	!	!	!	!	!	!
*	*	*	*	*	*	*Xtremolo	*	*	*	*	*	*	*	*	*
*	*	*	*	*Xtremolo	*	*	*	*	*	*	*	*	*	*	*
=123	=123	=123	=123	=123	=123	=123	=123	=123	=123	=123	=123	=123	=123	=123	=123
!LO:TX:t=P:problem:mixed beam	!	!	!	!	!	!	!	!	!	!	!	!	!	!	!
8BB-/L	.	8B-/	.	4b-/	.	4b-/	.	4B-/	.	4b-\	.	4b-\	.	4b-\	.
8B-\	.	8B-/L	p	.	.	.	.	.	.	.	.	.	.	.	.
8B-\	p	8B-/	.	4r	.	4r	.	4r	.	4r	.	4r	.	4r	.
8B-\J	.	8B-/J	.	.	.	.	.	.	.	.	.	.	.	.	.
8B-\L	.	8B-/L	.	4r	.	4r	.	2r	.	2r	.	4r	.	4r	.
8B-\	.	8B-/	.	.	.	.	.	.	.	.	.	.	.	.	.
!	!	!	!	!	!	!	!	!	!	!	!	!LO:TX:t=P:problem:niedokończony bemol?	!	!	!
8B-\	.	8B-/	.	4e-/	pp	4g/	pp	.	.	.	.	4ee-X\	.	4gg\	p
!	!	!	!	!LO:LB:g=original	!	!	!	!	!	!	!	!	!	!	!
8B-\J	.	8B-/J	.	.	.	.	.	.	.	.	.	.	.	.	.
=124	=124	=124	=124	=124	=124	=124	=124	=124	=124	=124	=124	=124	=124	=124	=124
!	!	!	!	!	!	!	!	!LO:TX:a:t=2	!	!LO:TX:a:t=2	!	!	!	!	!
8B-\L	.	8B-/L	.	(4e-/	.	(4g/	.	1r	.	1r	.	(4ee-\	.	(4gg\	.
8B-\	.	8B-/	.	.	.	.	.	.	.	.	.	.	.	.	.
8B-\	.	8B-/	.	4d/)	.	4f/)	.	.	.	.	.	4dd\)	.	4ffn\)	.
8B-\J	.	8B-/J	.	.	.	.	.	.	.	.	.	.	.	.	.
8B-\L	.	8B-/L	.	4r	.	4r	.	.	.	.	.	4r	.	4r	.
8B-\	.	8B-/	.	.	.	.	.	.	.	.	.	.	.	.	.
8B-\	.	8B-/	.	4c/	.	4e-/	.	.	.	.	.	4cc\	.	4ee-X\	pp
8B-\J	.	8B-/J	.	.	.	.	.	.	.	.	.	.	.	.	.
=125	=125	=125	=125	=125	=125	=125	=125	=125	=125	=125	=125	=125	=125	=125	=125
8B-\L	.	8B-/L	.	(4c/	.	(4e-/	.	1r	.	1r	.	(4cc\	.	(4ee-\	.
8B-\	.	8B-/	.	.	.	.	.	.	.	.	.	.	.	.	.
8B-\	.	8B-/	.	4B-/)	.	4d/)	.	.	.	.	.	4b-\)	.	4dd\)	.
8B-\J	.	8B-/J	.	.	.	.	.	.	.	.	.	.	.	.	.
*	*	*Xtremolo	*	*	*	*	*	*	*	*	*	*	*	*	*
*Xtremolo	*	*	*	*	*	*	*	*	*	*	*	*	*	*	*
8B-\L	.	8B-/L	.	4r	.	4r	.	.	.	.	.	4r	.	4r	.
8B-\	.	8B-/	.	.	.	.	.	.	.	.	.	.	.	.	.
!	!	!	!	!	!	!	!	!	!	!	!	!	!	!	!LO:DY:b:t=for
8E-\	pp	8e-/	.	4g/	.	(4cc\	.	.	.	.	.	4g/	pp	4cc\	f
!	!	!	!	!	!	!	!	!	!	!	!	!LO:LB:g=original	!	!	!
8E-\J	.	8e-/J	.	.	.	.	.	.	.	.	.	.	.	.	.
=126	=126	=126	=126	=126	=126	=126	=126	=126	=126	=126	=126	=126	=126	=126	=126
!	!	!LO:TX:t=P:problem:mixed beam	!	!	!	!	!	!	!	!	!	!	!	!	!
8D\L	.	8d\L	pp	(4f/	.	4b-\|)	.	4B-/	.	4b-/	pp	(4f/	.	4b-\	p
8D\	.	8d\	.	.	.	.	.	.	.	.	.	.	.	.	.
8E-\	.	8e-\	.	4g/	.	(4cc\	.	4r	.	4cc/	.	4g/	.	(4cc\	.
8E-\J	.	8e-\	.	.	.	.	.	.	.	.	.	.	.	.	.
!LO:TX:t=P:problem:mixed beam	!	!	!	!	!	!	!	!	!	!	!	!	!	!	!
8F\L	.	8f\	.	4f/	.	4b-\	.	4b-\	pp	4dd/	.	4f/	.	4b-\	.
8F\	.	8f\	.	.	.	.	.	.	.	.	.	.	.	.	.
8FF/	.	8F/	.	4e-/)	.	4a\)	.	4f/	.	4cc/	.	4e-X/)	.	4a\)	.
!	!	!	!	!	!	!	!	!LO:LB:g=original	!	!LO:LB:g=original	!	!	!	!LO:LB:g=original	!
8FF/J	.	8F/J	.	.	.	.	.	.	.	.	.	.	.	.	.
!	!	!LO:LB:g=original	!	!	!	!	!	!	!	!	!	!	!	!	!
=127	=127	=127	=127	=127	=127	=127	=127	=127	=127	=127	=127	=127	=127	=127	=127
!LO:TX:t=P:problem:mixed beam	!	!LO:TX:t=P:problem:mixed beam	!	!	!	!	!	!	!	!	!	!	!	!	!
8BB-/L	.	8B-/L	.	2e-/	.	(2a/	.	2f/	.	2cc\	.	2e-/	.	(2a/	.
8B-\	.	8b-\	.	.	.	.	.	.	.	.	.	.	.	.	.
8F\	.	8f\	.	.	.	.	.	.	.	.	.	.	.	.	.
8D\J	.	8d\J	.	.	.	.	.	.	.	.	.	.	.	.	.
4BB-/	.	4B-/	.	4d/	.	4b-/)	.	4B-/	.	4b-\	.	4d/	.	4b-/)	.
4r	.	4r	.	4r	.	4r	.	4r	.	4r	.	4r	.	4r	.
==	==	==	==	==	==	==	==	==	==	==	==	==	==	==	==
*-	*-	*-	*-	*-	*-	*-	*-	*-	*-	*-	*-	*-	*-	*-	*-
!!!RDF**kern: | = vertical stroke
!!!RDF**kern: > = above
!!!RDF**kern: < = below
!!!system-decoration: [(s1,s2)][(s3,s4)][(s5,s6,s7,s8)]
!!!AIN: 3 empty 2 oboe 1 viola 2 violn
!!!ENC: Kamil Watkowski
!!!END: 2020-09-12
!!!ENC: Julita Ruszuk
!!!END: 2022-01-27
